!!!!SEGMENT: pl-cz--iii-693--001-002_volckmer-augustin--litaniae-lauretanae-a-mater-christi.krn
!!!cenid: 18xx:1127
!!!COM: Volckmer, Augustin
!!!COM-rismID: pe30020656
!!!CDT: 1755-~1820
!!!CNT:
!!!OPR: Litaniae Lauretanae A
!!!OTL: Mater christi
!!!OMV: 002
!!!PDT:
!!!AGN: Sacred; Mass
!!!YEC: Copyright 2022 Narodowy Instytut Fryderyka Chopina (https://polishscores.org)
!!!YEM: License CC-BY-4.0 (https://creativecommons.org/licenses/by/4.0)
!!!SMS-siglum: PL-CZ
!!!SMS-shelfmark: III-693
!!!SMS-shelfwork: 001-002 M
!!!SMS-variant:
!!!SMS-altvar:
!!!NIFC-rismSourceID: 300001388
!!!NIFC-rismChildID: 300001388
!!!NIFC-islandoraID: pl-cz:40462
!!!URL-pdf-islandora: https://repozytorium.nifc.pl/islandora/object/pl-cz%3A40462/datastream/PDF/view
!!!URL-scan: https://polish.musicsources.pl/pl/lokalizacje/galeria/rekopisy/6990/1 @EN{Scan on Polish Music Sources Website} @PL{Skany w portalu Dziedzictwo Muzyki Polskiej w otwartym dostępie}
!!!IIIF:
!!!ONB-nifc: UWAGA: części Litanii: Kyrie, Mater christi, Virgo prudentissima, Rosa mystica, Salus infirmorum, Regina angelorum, Agnus Dei, Miserere nobis
!!!AIN: 1 alto 8 empty 2 oboe 1 organ 1 tenor 2 violn 1 vox
!!!key:
**kern	**fba	**dynam	**kern	**dynam	**kern	**kern	**dynam	**kern	**dynam	**kern	**text	**text	**kern	**kern	**kern	**kern	**kern	**kern	**dynam	**kern	**dynam	**kern	**dynam	**kern	**dynam	**kern
*part16	*	*	*part15	*	*part14	*part13	*	*part12	*	*part11	*	*	*part10	*part9	*part8	*part7	*part6	*part5	*	*part4	*	*part3	*	*part2	*	*part1
*staff16	*	*	*staff15	*	*staff14	*staff13	*	*staff12	*	*staff11	*	*	*staff10	*staff9	*staff8	*staff7	*staff6	*staff5	*	*staff4	*	*staff3	*	*staff2	*	*staff1
*Iorgan	*	*	*Iempty	*	*Iempty	*Ivioln	*	*Ivioln	*	*Iempty	*	*	*Itenor	*Ialto	*Ivox	*Iempty	*Iempty	*Iempty	*	*Iempty	*	*Ioboe	*	*Ioboe	*	*Iempty
*I"Organo	*	*	*I"Viola obl:	*	*I"Viola. Solo.	*I"Violino Secondo	*	*I"Violino Primo	*	*I"Baſso	*	*	*I"Tenore	*I"Alto	*I"Canto	*I"Tympano ex D.	*I"Clarino in D.	*I"Cornu Secondo in A	*	*I"Cornu Primo in A	*	*I"Oboe Secondo	*	*I"Oboe Primo	*	*I"Oboe Primo Solo
*I'org	*	*	*I'vla. obl:	*	*I'vla.	*I'vl II	*	*I'vl I	*	*I'B	*	*	*I'T	*I'A	*I'S	*I'timp. ex D	*	*I'c. II in A	*	*I'cor I in A	*	*I'ob II	*	*I'ob I	*	*
*ICklav	*	*	*ICstr	*	*ICstr	*ICstr	*	*ICstr	*	*ICvox	*	*	*ICvox	*ICvox	*ICvox	*ICidio	*ICbras	*ICbras	*	*ICbras	*	*ICww	*	*ICww	*	*ICww
*clefF4	*	*	*clefC3	*	*clefC3	*clefG2	*	*clefG2	*	*clefF4	*	*	*clefC4	*clefC3	*clefC1	*clefF4	*	*clefG2	*	*clefG2	*	*clefG2	*	*clefG2	*	*
*	*	*	*	*	*	*	*	*	*	*	*	*	*	*	*	*	*	*ITrd2c3	*	*ITrd2c3	*	*	*	*	*	*
*k[f#c#]	*	*	*k[f#c#]	*	*k[f#c#]	*k[f#c#]	*	*k[f#c#]	*	*k[f#c#]	*	*	*k[f#c#]	*k[f#c#]	*k[f#c#]	*k[f#c#]	*	*k[f#c#]	*	*k[f#c#]	*	*k[f#c#]	*	*k[f#c#]	*	*
*D:	*	*	*D:	*	*D:	*D:	*	*D:	*	*D:	*	*	*D:	*D:	*D:	*D:	*	*D:	*	*D:	*	*D:	*	*D:	*	*
*M2/2	*	*	*M2/2	*	*M2/2	*M2/2	*	*M2/2	*	*M2/2	*	*	*M2/2	*M2/2	*M2/2	*M2/2	*	*M2/2	*	*M2/2	*	*M2/2	*	*M2/2	*	*
*met(c|)	*	*	*met(c|)	*	*met(c|)	*met(c|)	*	*met(c|)	*	*met(c|)	*	*	*met(c|)	*met(c|)	*met(c|)	*met(c|)	*	*met(c|)	*	*met(c|)	*	*met(c|)	*	*met(c|)	*	*
*	*	*below	*	*	*	*	*	*	*	*	*	*	*	*	*	*	*	*	*	*	*	*	*	*	*	*
=1	=1	=1	=1	=1	=1	=1	=1	=1	=1	=1	=1	=1	=1	=1	=1	=1	=1	=1	=1	=1	=1	=1	=1	=1	=1	=1
*	*	*	*2\right	*	*	*	*	*2\right	*	*2\right	*	*	*	*	*	*	*	*	*	*	*	*	*	*	*	*
!LO:TX:a:t=Solo	!	!	!	!	!	!	!	!LO:TX:a:t=Offertorium	!LO:DY:t=mezzo forte	!	!	!	!	!	!	!	!	!LO:TX:t=P:problem=brak znaków przykluczowych	!	!LO:TX:t=P:problem=brak znaków przykluczowych	!	!	!	!	!	!
!LO:TX:a:t=allegro aſsai	!	!	!LO:TX:a:t=allegro aſsai	!	!	!LO:TX:a:rj:t=Offertorium	!	!LO:TX:t=P:problem=alternatywny tytuł (czerwony)	!	!LO:TX:a:t=allegro	!	!	!	!	!	!	!	!LO:TX:a:t=allegro aſsai	!	!LO:TX:a:t=allegro molto	!	!LO:TX:a:t=allegro aſsai	!	!LO:TX:a:rj:t=allegro aſsai	!	!LO:TX:t=P::problem=caudy drobnych nut nieregularnie - prawo, lewo, środek&colon; global
!LO:TX:t=P:problem=alternatywny tytuł (czerwony)	!	!	!LO:TX:t=P:problem=alternatywny tytuł (czerwony)	!	!	!LO:TX:a:t=allegro aſsai	!	!	!	!LO:TX:a:rj:t=Solo	!	!	!	!	!	!	!	!LO:TX:t=P:problem=alternatywny tytuł (czerwony)	!	!LO:TX:t=P:problem=alternatywny tytuł (czerwony)	!	!LO:TX:t=P:problem=alternatywny tytuł (czerwony)	!	!LO:TX:t=P:problem=alternatywny tytuł (czerwony)	!	!
!LO:TX:b:t=Offertorium	!	!	!LO:TX:a:t=Offertorium	!	!	!LO:TX:t=P:problem=alternatywny tytuł (czerwony)	!	!LO:TX:a:rj:t=allegro aſsai	!LO:DY:a	!	!	!	!LO:TX:a:t=Tacet	!LO:TX:a:t=Tacet	!LO:TX:a:t=Tacet	!LO:TX:a:t=Tacet	!LO:TX:a:t=[Tacet]	!LO:TX:b:t=Offertorium	!	!LO:TX:b:t=Offertorium	!	!LO:TX:a:t=Offertorium	!	!LO:TX:a:t=Offertorium	!	!LO:TX:a:t=[Tacet]
8D\L	5 3	.	2.f#\	.	1ryy	(16f#/LL	.	2.dd\	mf	2.d\	Ma-	San-	1ryy	1ryy	1ryy	1ryy	1ryy	0r	.	0r	.	0r	.	0r	.	1ryy
.	.	.	.	.	.	16a/	.	.	.	.	.	.	.	.	.	.	.	.	.	.	.	.	.	.	.	.
8D\	.	.	.	.	.	16f#/	.	.	.	.	.	.	.	.	.	.	.	.	.	.	.	.	.	.	.	.
.	.	.	.	.	.	16a/JJ)	.	.	.	.	.	.	.	.	.	.	.	.	.	.	.	.	.	.	.	.
8D\	.	.	.	.	.	(16f#/LL	.	.	.	.	.	.	.	.	.	.	.	.	.	.	.	.	.	.	.	.
.	.	.	.	.	.	16a/	.	.	.	.	.	.	.	.	.	.	.	.	.	.	.	.	.	.	.	.
8D\J	.	.	.	.	.	16f#/	.	.	.	.	.	.	.	.	.	.	.	.	.	.	.	.	.	.	.	.
.	.	.	.	.	.	16a/JJ)	.	.	.	.	.	.	.	.	.	.	.	.	.	.	.	.	.	.	.	.
*2\right	*	*	*	*	*	*	*	*	*	*	*	*	*	*	*	*	*	*	*	*	*	*	*	*	*	*
*tremolo	*	*	*	*	*	*tremolo	*	*	*	*	*	*	*	*	*	*	*	*	*	*	*	*	*	*	*	*
8D\L	.	.	.	.	.	(16f#/LL	.	.	.	.	.	.	.	.	.	.	.	.	.	.	.	.	.	.	.	.
.	.	.	.	.	.	16a/	.	.	.	.	.	.	.	.	.	.	.	.	.	.	.	.	.	.	.	.
8D\	.	.	.	.	.	16f#/	.	.	.	.	.	.	.	.	.	.	.	.	.	.	.	.	.	.	.	.
.	.	.	.	.	.	16a/	.	.	.	.	.	.	.	.	.	.	.	.	.	.	.	.	.	.	.	.
8D\	.	.	4f#\	.	.	16f#/	.	4a\	.	4A'\	-ter	-cte.	.	.	.	.	.	.	.	.	.	.	.	.	.	.
.	.	.	.	.	.	16a/	.	.	.	.	.	.	.	.	.	.	.	.	.	.	.	.	.	.	.	.
8D\J	.	.	.	.	.	16f#/	.	.	.	.	.	.	.	.	.	.	.	.	.	.	.	.	.	.	.	.
.	.	.	.	.	.	16a/JJ)	.	.	.	.	.	.	.	.	.	.	.	.	.	.	.	.	.	.	.	.
*Xtremolo	*	*	*	*	*	*Xtremolo	*	*	*	*	*	*	*	*	*	*	*	*	*	*	*	*	*	*	*	*
=2	=2	=2	=2	=2	=2	=2	=2	=2	=2	=2	=2	=2	=2	=2	=2	=2	=2	=2	=2	=2	=2	=2	=2	=2	=2	=2
*	*	*	*	*	*	*	*	*	*	*	*	*ij	*	*	*	*	*	*	*	*	*	*	*	*	*	*
8D\L	6 4	.	4g\	.	1ryy	16g/LL	.	4b\|>	.	4B\|>	Chri-	San-	1ryy	1ryy	1ryy	1ryy	1ryy	.	.	.	.	.	.	.	.	1ryy
.	.	.	.	.	.	16b/	.	.	.	.	.	.	.	.	.	.	.	.	.	.	.	.	.	.	.	.
8D\	.	.	.	.	.	16g/	.	.	.	.	.	.	.	.	.	.	.	.	.	.	.	.	.	.	.	.
.	.	.	.	.	.	16b/JJ	.	.	.	.	.	.	.	.	.	.	.	.	.	.	.	.	.	.	.	.
8D\	5 3	.	4f#\	.	.	16f#/LL	.	4a/|>	.	4A\|>	-sti	-cte	.	.	.	.	.	.	.	.	.	.	.	.	.	.
*	*	*	*	*	*	*	*	*	*	*	*	*Xij	*	*	*	*	*	*	*	*	*	*	*	*	*	*
.	.	.	.	.	.	16a/	.	.	.	.	.	.	.	.	.	.	.	.	.	.	.	.	.	.	.	.
8D\J	.	.	.	.	.	16f#/	.	.	.	.	.	.	.	.	.	.	.	.	.	.	.	.	.	.	.	.
.	.	.	.	.	.	16a/JJ	.	.	.	.	.	.	.	.	.	.	.	.	.	.	.	.	.	.	.	.
*tremolo	*	*	*	*	*	*tremolo	*	*	*	*	*	*	*	*	*	*	*	*	*	*	*	*	*	*	*	*
8D\L	_ _	.	4r	.	.	16f#/LL	.	4r	.	2r	.	.	.	.	.	.	.	.	.	.	.	.	.	.	.	.
.	x	.	.	.	.	16a/	.	.	.	.	.	.	.	.	.	.	.	.	.	.	.	.	.	.	.	.
8D\	.	.	.	.	.	16f#/	.	.	.	.	.	.	.	.	.	.	.	.	.	.	.	.	.	.	.	.
.	.	.	.	.	.	16a/	.	.	.	.	.	.	.	.	.	.	.	.	.	.	.	.	.	.	.	.
8D\	.	.	4r	.	.	16f#/	.	16d/LL	.	.	.	.	.	.	.	.	.	.	.	.	.	.	.	.	.	.
.	.	.	.	.	.	16a/	.	(32e/L	.	.	.	.	.	.	.	.	.	.	.	.	.	.	.	.	.	.
.	.	.	.	.	.	.	.	32f#/JJJ	.	.	.	.	.	.	.	.	.	.	.	.	.	.	.	.	.	.
8D\J	.	.	.	.	.	16f#/	.	32g/LLL	.	.	.	.	.	.	.	.	.	.	.	.	.	.	.	.	.	.
.	.	.	.	.	.	.	.	32a/	.	.	.	.	.	.	.	.	.	.	.	.	.	.	.	.	.	.
.	.	.	.	.	.	16a/JJ	.	32b/	.	.	.	.	.	.	.	.	.	.	.	.	.	.	.	.	.	.
.	.	.	.	.	.	.	.	32cc#/JJJ)	.	.	.	.	.	.	.	.	.	.	.	.	.	.	.	.	.	.
=3	=3	=3	=3	=3	=3	=3	=3	=3	=3	=3	=3	=3	=3	=3	=3	=3	=3	=3	=3	=3	=3	=3	=3	=3	=3	=3
8D\L	.	.	8f#\L	.	1ryy	16f#/LL	.	2.dd\	.	2.d\	Ma-	Jo-	1ryy	1ryy	1ryy	1ryy	1ryy	1r	.	1r	.	1r	.	1r	.	1ryy
.	.	.	.	.	.	16a/	.	.	.	.	.	.	.	.	.	.	.	.	.	.	.	.	.	.	.	.
8D\	.	.	8d\	.	.	16f#/	.	.	.	.	.	.	.	.	.	.	.	.	.	.	.	.	.	.	.	.
.	.	.	.	.	.	16a/	.	.	.	.	.	.	.	.	.	.	.	.	.	.	.	.	.	.	.	.
8D\	.	.	8f#\	.	.	16f#/	.	.	.	.	.	.	.	.	.	.	.	.	.	.	.	.	.	.	.	.
.	.	.	.	.	.	16a/	.	.	.	.	.	.	.	.	.	.	.	.	.	.	.	.	.	.	.	.
8D\J	.	.	8d\J	.	.	16f#/	.	.	.	.	.	.	.	.	.	.	.	.	.	.	.	.	.	.	.	.
.	.	.	.	.	.	16a/JJ	.	.	.	.	.	.	.	.	.	.	.	.	.	.	.	.	.	.	.	.
8D\L	.	.	8f#\L	.	.	16f#/LL	.	.	.	.	.	.	.	.	.	.	.	.	.	.	.	.	.	.	.	.
.	.	.	.	.	.	16a/	.	.	.	.	.	.	.	.	.	.	.	.	.	.	.	.	.	.	.	.
8D\	.	.	8d\	.	.	16f#/	.	.	.	.	.	.	.	.	.	.	.	.	.	.	.	.	.	.	.	.
.	.	.	.	.	.	16a/	.	.	.	.	.	.	.	.	.	.	.	.	.	.	.	.	.	.	.	.
8D\	.	.	8f#\	.	.	16f#/	.	4a\	.	4A\	-ter	.	.	.	.	.	.	.	.	.	.	.	.	.	.	.
.	.	.	.	.	.	16a/	.	.	.	.	.	.	.	.	.	.	.	.	.	.	.	.	.	.	.	.
8D\J	.	.	8d\J	.	.	16f#/	.	.	.	.	.	.	.	.	.	.	.	.	.	.	.	.	.	.	.	.
.	.	.	.	.	.	16a/JJ	.	.	.	.	.	.	.	.	.	.	.	.	.	.	.	.	.	.	.	.
*Xtremolo	*	*	*	*	*	*Xtremolo	*	*	*	*	*	*	*	*	*	*	*	*	*	*	*	*	*	*	*	*
=4	=4	=4	=4	=4	=4	=4	=4	=4	=4	=4	=4	=4	=4	=4	=4	=4	=4	=4	=4	=4	=4	=4	=4	=4	=4	=4
8AA/L	.	.	8e\L	.	1ryy	16e/LL	.	4g/	.	4G\	Chri-	-an-	1ryy	1ryy	1ryy	1ryy	1ryy	4r	.	4r	.	4r	.	4r	.	1ryy
.	.	.	.	.	.	16a/	.	.	.	.	.	.	.	.	.	.	.	.	.	.	.	.	.	.	.	.
8AA/J	.	.	8c#\J	.	.	16e/	.	.	.	.	.	.	.	.	.	.	.	.	.	.	.	.	.	.	.	.
.	.	.	.	.	.	16a/JJ	.	.	.	.	.	.	.	.	.	.	.	.	.	.	.	.	.	.	.	.
4D\	.	.	4d\	.	.	16d/LL	.	4f#/	.	4F#\	-sti	-nes	.	.	.	.	.	4a\	.	4a\	.	4d/	.	4f#/	.	.
.	.	.	.	.	.	16a/	.	.	.	.	.	.	.	.	.	.	.	.	.	.	.	.	.	.	.	.
.	.	.	.	.	.	16d/	.	.	.	.	.	.	.	.	.	.	.	.	.	.	.	.	.	.	.	.
.	.	.	.	.	.	16a/JJ	.	.	.	.	.	.	.	.	.	.	.	.	.	.	.	.	.	.	.	.
4DD/	.	.	4r	.	.	4d/ 4a/	.	2r	.	4r	.	.	.	.	.	.	.	4a\	.	4a\	.	4d/	.	4f#/	.	.
4r	.	.	(8a\L	.	.	4r	.	.	.	8A\L	o-	.	.	.	.	.	.	4r	.	4r	.	4r	.	4r	.	.
.	.	.	8f#\J)	.	.	.	.	.	.	8F#\J	.	.	.	.	.	.	.	.	.	.	.	.	.	.	.	.
!	!	!	!LO:LB:g=original	!	!	!	!	!	!	!LO:LB:g=original	!	!	!	!	!	!	!	!	!	!	!	!	!	!	!	!
=5	=5	=5	=5	=5	=5	=5	=5	=5	=5	=5	=5	=5	=5	=5	=5	=5	=5	=5	=5	=5	=5	=5	=5	=5	=5	=5
4r	.	.	4d\|>	.	1ryy	4r	.	4r	.	4D\	-ra	.	1ryy	1ryy	1ryy	1ryy	1ryy	00r	.	00r	.	00r	.	00r	.	1ryy
4D\	.	.	4r	.	.	16f#/LL	.	(16dd\LL	.	4r	.	.	.	.	.	.	.	.	.	.	.	.	.	.	.	.
.	.	.	.	.	.	(16e/	.	16cc#\	.	.	.	.	.	.	.	.	.	.	.	.	.	.	.	.	.	.
.	.	.	.	.	.	16f#/	.	16dd\	.	.	.	.	.	.	.	.	.	.	.	.	.	.	.	.	.	.
.	.	.	.	.	.	16g/JJ	.	16ee\JJ)	.	.	.	.	.	.	.	.	.	.	.	.	.	.	.	.	.	.
4D\	.	.	4r	.	.	4f#/)	.	4dd\	.	4r	.	.	.	.	.	.	.	.	.	.	.	.	.	.	.	.
*	*	*	*	*	*	*	*	*	*	*	*ij	*	*	*	*	*	*	*	*	*	*	*	*	*	*	*
4r	.	.	8b\L|>	.	.	4r	.	4r	.	8B\L	o-	.	.	.	.	.	.	.	.	.	.	.	.	.	.	.
.	.	.	8g\J|>	.	.	.	.	.	.	8G\J	.	.	.	.	.	.	.	.	.	.	.	.	.	.	.	.
!	!	!	!	!	!	!LO:LB:g=original	!	!	!	!	!	!	!	!	!	!	!	!	!	!	!	!	!	!	!	!
=6	=6	=6	=6	=6	=6	=6	=6	=6	=6	=6	=6	=6	=6	=6	=6	=6	=6	=6	=6	=6	=6	=6	=6	=6	=6	=6
4r	.	.	4e\	.	1ryy	4r	.	4r	.	4E\	-ra	.	1ryy	1ryy	1ryy	1ryy	1ryy	.	.	.	.	.	.	.	.	1ryy
*	*	*	*	*	*	*	*	*	*	*	*Xij	*	*	*	*	*	*	*	*	*	*	*	*	*	*	*
4G\	.	.	4r	.	.	(16g/LL	.	(16ee\LL	.	4r	.	.	.	.	.	.	.	.	.	.	.	.	.	.	.	.
.	.	.	.	.	.	16f#/	.	16dd#X\	.	.	.	.	.	.	.	.	.	.	.	.	.	.	.	.	.	.
.	.	.	.	.	.	16g/	.	16ee\	.	.	.	.	.	.	.	.	.	.	.	.	.	.	.	.	.	.
.	.	.	.	.	.	16a/JJ)	.	16ff#\JJ)	.	.	.	.	.	.	.	.	.	.	.	.	.	.	.	.	.	.
4G\	.	.	4r	.	.	4g/	.	4ee\	.	4r	.	.	.	.	.	.	.	.	.	.	.	.	.	.	.	.
4r	.	.	4g\	.	.	8b/L	.	(8gg\L	.	8G\L	pro	.	.	.	.	.	.	.	.	.	.	.	.	.	.	.
.	.	.	.	.	.	8a/J	.	8ff#\J)	.	8F#\J	.	.	.	.	.	.	.	.	.	.	.	.	.	.	.	.
=7	=7	=7	=7	=7	=7	=7	=7	=7	=7	=7	=7	=7	=7	=7	=7	=7	=7	=7	=7	=7	=7	=7	=7	=7	=7	=7
2A\	.	.	2a\	.	1ryy	4g/	.	(4ee\	.	4E\	no-	.	1ryy	1ryy	1ryy	1ryy	1ryy	.	.	.	.	.	.	.	.	1ryy
.	.	.	.	.	.	2f#/	.	2dd\	.	2D\	.	.	.	.	.	.	.	.	.	.	.	.	.	.	.	.
!LO:TX:b:t=V&colon;S&colon;	!	!	!	!	!	!	!	!	!	!	!	!	!	!	!	!	!	!	!	!	!	!	!	!	!	!
2AA/	.	.	2A/	.	.	.	.	.	.	.	.	.	.	.	.	.	.	.	.	.	.	.	.	.	.	.
.	.	.	.	.	.	4e/	.	4cc#\)	.	4C#\	.	.	.	.	.	.	.	.	.	.	.	.	.	.	.	.
!LO:PB:g=original	!	!	!	!	!	!	!	!LO:LB:g=original	!	!	!	!	!	!	!	!	!	!	!	!	!	!	!	!	!	!
=8	=8	=8	=8	=8	=8	=8	=8	=8	=8	=8	=8	=8	=8	=8	=8	=8	=8	=8	=8	=8	=8	=8	=8	=8	=8	=8
4D\	.	f	4d\	.	1ryy	4f#/	.	4dd\	.	2D\	-bis	.	1ryy	1ryy	1ryy	1ryy	1ryy	.	.	.	.	.	.	.	.	1ryy
4DD/	.	.	8d\L 8a\	f	.	16f#/LL	.	(16dd\LL	.	.	.	.	.	.	.	.	.	.	.	.	.	.	.	.	.	.
.	.	.	.	.	.	(16e/	.	16cc#\	.	.	.	.	.	.	.	.	.	.	.	.	.	.	.	.	.	.
.	.	.	8d\J 8a\	.	.	16f#/	.	16dd\	.	.	.	.	.	.	.	.	.	.	.	.	.	.	.	.	.	.
.	.	.	.	.	.	16g/JJ)	.	16ee\JJ)	.	.	.	.	.	.	.	.	.	.	.	.	.	.	.	.	.	.
4DD/	.	.	2d\ 2a\	.	.	4f#/|<	.	4dd\	.	2r	.	.	.	.	.	.	.	.	.	.	.	.	.	.	.	.
4r	.	.	.	.	.	8a/L|<	.	8a/L	.	.	.	.	.	.	.	.	.	.	.	.	.	.	.	.	.	.
.	.	.	.	.	.	8f#/J|<	.	8f#/J	.	.	.	.	.	.	.	.	.	.	.	.	.	.	.	.	.	.
=9	=9	=9	=9	=9	=9	=9	=9	=9	=9	=9	=9	=9	=9	=9	=9	=9	=9	=9	=9	=9	=9	=9	=9	=9	=9	=9
*	*	*	*	*	*	*	*	*	*below	*	*	*	*	*	*	*	*	*	*	*	*	*	*	*	*	*
4r	.	.	4r	.	1ryy	4d/	.	4d/	p	1r	.	.	1ryy	1ryy	1ryy	1ryy	1ryy	4r	.	4r	.	4r	.	4r	.	1ryy
4F#\	.	p	4d\|>	p	.	4r	.	4r	.	.	.	.	.	.	.	.	.	4a\	p	4a\	p	4f#/	p	4dd\	p	.
4F#\	.	.	4d\|>	.	.	4r	.	4r	.	.	.	.	.	.	.	.	.	4a\	.	4a\	.	4f#/	.	4dd\	.	.
4r	.	.	4r	.	.	8b/L|<	.	8b/L|<	.	.	.	.	.	.	.	.	.	4r	.	4r	.	4r	.	4r	.	.
.	.	.	.	.	.	8g/J|<	.	8g/J|<	.	.	.	.	.	.	.	.	.	.	.	.	.	.	.	.	.	.
=10	=10	=10	=10	=10	=10	=10	=10	=10	=10	=10	=10	=10	=10	=10	=10	=10	=10	=10	=10	=10	=10	=10	=10	=10	=10	=10
4r	.	.	4r	.	1ryy	4e/|<	.	4e/	.	2r	.	.	1ryy	1ryy	1ryy	1ryy	1ryy	4r	.	4b\	.	4r	.	4r	.	1ryy
4G\|>	.	.	4e\	.	.	4r	.	4r	.	.	.	.	.	.	.	.	.	4e/	.	4a\	.	4g/	f	4ee\	.	.
4G\|>	.	.	4e\	.	.	4r	.	4r	.	4r	.	.	.	.	.	.	.	4e/	.	4b\	.	4g/	.	4ee\	f	.
4c#\|>	.	.	4cc#\|>	f	.	4cc#\|>	.	4cc#\	f	4c#\	o-	.	.	.	.	.	.	4r	.	4a\	.	4r	.	4cc#\	.	.
=11	=11	=11	=11	=11	=11	=11	=11	=11	=11	=11	=11	=11	=11	=11	=11	=11	=11	=11	=11	=11	=11	=11	=11	=11	=11	=11
*	*	*	*	*	*	*2\right	*	*	*	*	*	*	*	*	*	*	*	*	*	*	*	*2\right	*	*2\right	*	*
2d\|>	.	.	2dd\|>	.	1ryy	2dd\|>	.	2dd\|>	.	2d\	.	.	1ryy	1ryy	1ryy	1ryy	1ryy	1r	.	1r	.	2dd\|>	.	2dd\	.	1ryy
4A\|>	.	.	4a\|>	.	.	4a/|<	.	4f#/|>	.	4A\	-ra	.	.	.	.	.	.	.	.	.	.	4a/|>	.	4a/	.	.
4F#\|>	.	.	4f#\|>	.	.	4f#/|<	.	4d/|>	.	4F#\	pro	.	.	.	.	.	.	.	.	.	.	4f#/|>	.	4f#/	.	.
=12	=12	=12	=12	=12	=12	=12	=12	=12	=12	=12	=12	=12	=12	=12	=12	=12	=12	=12	=12	=12	=12	=12	=12	=12	=12	=12
4E\	.	.	4d\|>	.	1ryy	4e/	.	4e/	.	4E\	no-	.	1ryy	1ryy	1ryy	1ryy	1ryy	4r	.	4r	.	4e/|>	.	4e/|>	.	1ryy
4A\	.	.	4a\|>	.	.	4c#/	.	4A/ 4e/ 4a/	.	4A\	-bis	.	.	.	.	.	.	8A/L	.	8a\L	.	4e/|>	.	4cc#\|>	.	.
.	.	.	.	.	.	.	.	.	.	.	.	.	.	.	.	.	.	8A/J	.	8a\J	.	.	.	.	.	.
4AA/	.	.	4A/|>	.	.	4c#/	.	4A/ 4e/ 4a/	.	4r	.	.	.	.	.	.	.	4A/	.	4a\	.	4e/|>	.	4cc#\|>	.	.
4r	.	.	4e\|>	p	.	4r	.	4r	.	(4E\	Ma-	San-	.	.	.	.	.	4r	.	4r	.	4r	.	4r	.	.
!	!	!	!	!	!	!	!	!	!	!	!	!	!	!	!	!	!	!LO:LB:g=original	!	!	!	!	!	!	!	!
=13	=13	=13	=13	=13	=13	=13	=13	=13	=13	=13	=13	=13	=13	=13	=13	=13	=13	=13	=13	=13	=13	=13	=13	=13	=13	=13
!	!	!	!LO:TX:a:rj:t=Solo	!	!	!	!	!LO:TX:a:t=Vox	!	!	!	!	!	!	!	!	!	!	!	!	!	!	!	!	!	!
4r	.	.	2a\	.	1ryy	2e/ 2cc#/	p	2a\ 2ee\	p	2A\)	.	-cte	1ryy	1ryy	1ryy	1ryy	1ryy	00r	.	00r	.	00r	.	00r	.	1ryy
4A\	.	.	.	.	.	.	.	.	.	.	.	.	.	.	.	.	.	.	.	.	.	.	.	.	.	.
!	!	!	!	!	!	!	!	!	!	!LO:LB:g=original	!	!	!	!	!	!	!	!	!	!	!	!	!	!	!	!
4E\	.	.	(8b\L	.	.	4e/ 4cc#/	.	4a\ 4ee\	.	8B\L	-ter	Jo-	.	.	.	.	.	.	.	.	.	.	.	.	.	.
.	.	.	8a\	.	.	.	.	.	.	8A\J	.	.	.	.	.	.	.	.	.	.	.	.	.	.	.	.
4C#\	.	.	8g#X\	.	.	4e/ 4cc#/	.	4a\ 4ee\	.	8G#X\L	di-	.	.	.	.	.	.	.	.	.	.	.	.	.	.	.
.	.	.	8a\J)	.	.	.	.	.	.	8A\J	.	.	.	.	.	.	.	.	.	.	.	.	.	.	.	.
=14	=14	=14	=14	=14	=14	=14	=14	=14	=14	=14	=14	=14	=14	=14	=14	=14	=14	=14	=14	=14	=14	=14	=14	=14	=14	=14
8AA/L	5 3	.	4ee\|>	.	1ryy	8a/L	.	(8cc#\L	.	4e\	-vi-	-an-	1ryy	1ryy	1ryy	1ryy	1ryy	.	.	.	.	.	.	.	.	1ryy
8AA/	_ _	.	.	.	.	(8cc#/	.	8ee\	.	.	.	.	.	.	.	.	.	.	.	.	.	.	.	.	.	.
8AA/	.	.	4cc#\|>	.	.	8a/	.	8cc#\	.	4c#\	-na	-nes	.	.	.	.	.	.	.	.	.	.	.	.	.	.
8AA/J	x	.	.	.	.	8cc#/J)	.	8ee\J)	.	.	.	.	.	.	.	.	.	.	.	.	.	.	.	.	.	.
*tremolo	*	*	*	*	*	*	*	*tremolo	*	*	*	*	*	*	*	*	*	*	*	*	*	*	*	*	*	*
!	!	!	!	!	!	!	!	!	!	!LO:TX:t=P:global:problem=klamra łukowa, kropka zamiast numeru	!	!	!	!	!	!	!	!	!	!	!	!	!	!	!	!
8AA/L	_ _	.	4a\|>	.	.	(8a/L	.	(8cc#\L	.	12A\L	gra-	Ne-	.	.	.	.	.	.	.	.	.	.	.	.	.	.
.	.	.	.	.	.	.	.	.	.	12c#\	.	.	.	.	.	.	.	.	.	.	.	.	.	.	.	.
8AA/	x	.	.	.	.	8cc#/	.	8ee\	.	.	.	.	.	.	.	.	.	.	.	.	.	.	.	.	.	.
.	.	.	.	.	.	.	.	.	.	12A\J	.	.	.	.	.	.	.	.	.	.	.	.	.	.	.	.
8AA/	.	.	4e\|>	.	.	8a/	.	8cc#\	.	12E\L	.	-po-	.	.	.	.	.	.	.	.	.	.	.	.	.	.
.	.	.	.	.	.	.	.	.	.	12A\	.	.	.	.	.	.	.	.	.	.	.	.	.	.	.	.
8AA/J	.	.	.	.	.	8cc#/J)	.	8ee\J)	.	.	.	.	.	.	.	.	.	.	.	.	.	.	.	.	.	.
.	.	.	.	.	.	.	.	.	.	12E\J	.	.	.	.	.	.	.	.	.	.	.	.	.	.	.	.
!	!	!	!	!	!	!LO:LB:g=original	!	!	!	!	!	!	!	!	!	!	!	!	!	!	!	!	!	!	!	!
=15	=15	=15	=15	=15	=15	=15	=15	=15	=15	=15	=15	=15	=15	=15	=15	=15	=15	=15	=15	=15	=15	=15	=15	=15	=15	=15
8AA/L	_ _	.	4c#\|>	.	1ryy	(8a\L	.	(8cc#\L	.	8C#/L	.	-mo-	1ryy	1ryy	1ryy	1ryy	1ryy	.	.	.	.	.	.	.	.	1ryy
8AA/	.	.	.	.	.	8cc#\	.	8ee\	.	8AA/J	.	.	.	.	.	.	.	.	.	.	.	.	.	.	.	.
8AA/	x	.	4e\|>	.	.	8a\	.	8cc#\	.	8E\L	-ti-	-ce-	.	.	.	.	.	.	.	.	.	.	.	.	.	.
8AA/J	.	.	.	.	.	8cc#\J)	.	8ee\J)	.	8C#\J	.	.	.	.	.	.	.	.	.	.	.	.	.	.	.	.
8AA/L	.	.	4a\|>	.	.	(8a\L	.	(8cc#\L	.	4A\	-a	-ne	.	.	.	.	.	.	.	.	.	.	.	.	.	.
8AA/	.	.	.	.	.	8cc#\	.	8ee\	.	.	.	.	.	.	.	.	.	.	.	.	.	.	.	.	.	.
8AA/	.	.	4r	.	.	8a\	.	8cc#\	.	4r	.	.	.	.	.	.	.	.	.	.	.	.	.	.	.	.
8AA/J	.	.	.	.	.	8cc#\J)	.	8ee\J)	.	.	.	.	.	.	.	.	.	.	.	.	.	.	.	.	.	.
!LO:LB:g=original	!	!	!LO:LB:g=original	!	!	!	!	!	!	!	!	!	!	!	!	!	!	!	!	!	!	!	!	!	!	!
=16	=16	=16	=16	=16	=16	=16	=16	=16	=16	=16	=16	=16	=16	=16	=16	=16	=16	=16	=16	=16	=16	=16	=16	=16	=16	=16
8AA/L	6 4	.	4f#\|>	.	1ryy	(8a\L	.	(8dd\L	.	4F#\	o-	.	1ryy	1ryy	1ryy	1ryy	1ryy	.	.	.	.	.	.	.	.	1ryy
8AA/	.	.	.	.	.	8dd\	.	8ff#\	.	.	.	.	.	.	.	.	.	.	.	.	.	.	.	.	.	.
8AA/	.	.	4dd\|>	.	.	8a\	.	8dd\	.	4d\	.	.	.	.	.	.	.	.	.	.	.	.	.	.	.	.
8AA/J	.	.	.	.	.	8dd\J)	.	8ff#\J)	.	.	.	.	.	.	.	.	.	.	.	.	.	.	.	.	.	.
8AA/L	_ _	.	4a\|>	.	.	(8a\L	.	(8dd\L	.	12A\L	.	.	.	.	.	.	.	.	.	.	.	.	.	.	.	.
.	.	.	.	.	.	.	.	.	.	12d\	.	.	.	.	.	.	.	.	.	.	.	.	.	.	.	.
8AA/	x	.	.	.	.	8dd\	.	8ff#\	.	.	.	.	.	.	.	.	.	.	.	.	.	.	.	.	.	.
.	.	.	.	.	.	.	.	.	.	12A\J	.	.	.	.	.	.	.	.	.	.	.	.	.	.	.	.
8AA/	.	.	4f#\|>	.	.	8a\	.	8dd\	.	12F#\L	.	.	.	.	.	.	.	.	.	.	.	.	.	.	.	.
.	.	.	.	.	.	.	.	.	.	12A\	.	.	.	.	.	.	.	.	.	.	.	.	.	.	.	.
8AA/J	.	.	.	.	.	8dd\J)	.	8ff#\J)	.	.	.	.	.	.	.	.	.	.	.	.	.	.	.	.	.	.
.	.	.	.	.	.	.	.	.	.	12F#\J	.	.	.	.	.	.	.	.	.	.	.	.	.	.	.	.
!	!	!	!	!	!	!	!	!LO:LB:g=original	!	!	!	!	!	!	!	!	!	!	!	!	!	!	!	!	!	!
=17	=17	=17	=17	=17	=17	=17	=17	=17	=17	=17	=17	=17	=17	=17	=17	=17	=17	=17	=17	=17	=17	=17	=17	=17	=17	=17
8AA/L	_ _	.	4d\|>	.	1ryy	(8a\L	.	(8dd\L	.	8D/L	.	.	1ryy	1ryy	1ryy	1ryy	1ryy	00r	.	00r	.	00r	.	00r	.	1ryy
8AA/	.	.	.	.	.	8dd\	.	8ff#\	.	8AA/J	.	.	.	.	.	.	.	.	.	.	.	.	.	.	.	.
8AA/	x	.	4f#\|>	.	.	8a\	.	8dd\	.	8F#\L	.	.	.	.	.	.	.	.	.	.	.	.	.	.	.	.
8AA/J	.	.	.	.	.	8dd\J)	.	8ff#\J)	.	8D\J	.	.	.	.	.	.	.	.	.	.	.	.	.	.	.	.
8AA/L	.	.	4a\|>	.	.	(8a\L	.	(8dd\L	.	4A\	-ra	.	.	.	.	.	.	.	.	.	.	.	.	.	.	.
8AA/	.	.	.	.	.	8dd\	.	8ff#\	.	.	.	.	.	.	.	.	.	.	.	.	.	.	.	.	.	.
8AA/	.	.	4r	.	.	8a\	.	8dd\	.	4r	.	.	.	.	.	.	.	.	.	.	.	.	.	.	.	.
8AA/J	.	.	.	.	.	8dd\J)	.	8ff#\J)	.	.	.	.	.	.	.	.	.	.	.	.	.	.	.	.	.	.
!	!	!	!	!	!	!	!	!	!	!LO:LB:g=original	!	!	!	!	!	!	!	!	!	!	!	!	!	!	!	!
=18	=18	=18	=18	=18	=18	=18	=18	=18	=18	=18	=18	=18	=18	=18	=18	=18	=18	=18	=18	=18	=18	=18	=18	=18	=18	=18
8AA/L	5 3	.	4e\|>	.	1ryy	(8a\L	.	(8cc#\L	.	4E\	o-	.	1ryy	1ryy	1ryy	1ryy	1ryy	.	.	.	.	.	.	.	.	1ryy
8AA/	.	.	.	.	.	8cc#\	.	8ee\	.	.	.	.	.	.	.	.	.	.	.	.	.	.	.	.	.	.
8AA/	.	.	4cc#\|>	.	.	8a\	.	8cc#\	.	4c#\	.	.	.	.	.	.	.	.	.	.	.	.	.	.	.	.
8AA/J	.	.	.	.	.	8cc#\J)	.	8ee\J)	.	.	.	.	.	.	.	.	.	.	.	.	.	.	.	.	.	.
8AA/L	_ _	.	4a\|>	.	.	(8a\L	.	(8cc#\L	.	12A\L	.	.	.	.	.	.	.	.	.	.	.	.	.	.	.	.
.	.	.	.	.	.	.	.	.	.	12c#\	.	.	.	.	.	.	.	.	.	.	.	.	.	.	.	.
8AA/	x	.	.	.	.	8cc#\	.	8ee\	.	.	.	.	.	.	.	.	.	.	.	.	.	.	.	.	.	.
.	.	.	.	.	.	.	.	.	.	12A\J	.	.	.	.	.	.	.	.	.	.	.	.	.	.	.	.
8AA/	.	.	4e\|>	.	.	8a\	.	8cc#\	.	12E\L	.	.	.	.	.	.	.	.	.	.	.	.	.	.	.	.
.	.	.	.	.	.	.	.	.	.	12A\	.	.	.	.	.	.	.	.	.	.	.	.	.	.	.	.
8AA/J	.	.	.	.	.	8cc#\J)	.	8ee\J)	.	.	.	.	.	.	.	.	.	.	.	.	.	.	.	.	.	.
.	.	.	.	.	.	.	.	.	.	12E\J	.	.	.	.	.	.	.	.	.	.	.	.	.	.	.	.
=19	=19	=19	=19	=19	=19	=19	=19	=19	=19	=19	=19	=19	=19	=19	=19	=19	=19	=19	=19	=19	=19	=19	=19	=19	=19	=19
8AA/L	_ _	.	4c#\|>	.	1ryy	8a\L	.	(8cc#\L	.	8C#/L	.	.	1ryy	1ryy	1ryy	1ryy	1ryy	.	.	.	.	.	.	.	.	1ryy
8AA/	.	.	.	.	.	8cc#\	.	8ee\	.	8AA/J	.	.	.	.	.	.	.	.	.	.	.	.	.	.	.	.
8AA/	x	.	4e\|>	.	.	8a\	.	8cc#\	.	8E\L	.	.	.	.	.	.	.	.	.	.	.	.	.	.	.	.
8AA/J	.	.	.	.	.	8cc#\J	.	8ee\J)	.	8C#\J	.	.	.	.	.	.	.	.	.	.	.	.	.	.	.	.
8AA/L	.	.	4a\|>	.	.	8a\L	.	(8cc#\L	.	4A\	-ra	.	.	.	.	.	.	.	.	.	.	.	.	.	.	.
8AA/	.	.	.	.	.	8cc#\	.	8ee\	.	.	.	.	.	.	.	.	.	.	.	.	.	.	.	.	.	.
8AA/	.	.	4r	.	.	8a\	.	8cc#\	.	4r	.	.	.	.	.	.	.	.	.	.	.	.	.	.	.	.
8AA/J	.	.	.	.	.	8cc#\J	.	8ee\J)	.	.	.	.	.	.	.	.	.	.	.	.	.	.	.	.	.	.
*Xtremolo	*	*	*	*	*	*	*	*Xtremolo	*	*	*	*	*	*	*	*	*	*	*	*	*	*	*	*	*	*
=20	=20	=20	=20	=20	=20	=20	=20	=20	=20	=20	=20	=20	=20	=20	=20	=20	=20	=20	=20	=20	=20	=20	=20	=20	=20	=20
4E\	.	.	4r	.	1ryy	4r	.	4dd\	mf	4d\	o-	.	1ryy	1ryy	1ryy	1ryy	1ryy	.	.	.	.	.	.	.	.	1ryy
2E\	.	f	2B/	f	.	2g#X/	f	2d/	.	2D\	-ra	.	.	.	.	.	.	.	.	.	.	.	.	.	.	.
4E\	.	.	4B/	.	.	4g#/	.	4d/	.	4D\	pro	.	.	.	.	.	.	.	.	.	.	.	.	.	.	.
=21	=21	=21	=21	=21	=21	=21	=21	=21	=21	=21	=21	=21	=21	=21	=21	=21	=21	=21	=21	=21	=21	=21	=21	=21	=21	=21
4AA/	.	p	4A/	p	1ryy	4a/	p	8c#/L|<	p	8C#\L	no-	.	1ryy	1ryy	1ryy	1ryy	1ryy	00r	.	00r	.	0r	.	0r	.	1ryy
.	.	.	.	.	.	.	.	8e/|<	.	8E\J	.	.	.	.	.	.	.	.	.	.	.	.	.	.	.	.
4r	.	.	4r	.	.	4r	.	8a/|<	.	8A\L	.	.	.	.	.	.	.	.	.	.	.	.	.	.	.	.
.	.	.	.	.	.	.	.	8e/J|<	.	8E\J	.	.	.	.	.	.	.	.	.	.	.	.	.	.	.	.
2r	.	.	2r	.	.	2r	.	8cc#/L	.	8c#\L|>	.	.	.	.	.	.	.	.	.	.	.	.	.	.	.	.
.	.	.	.	.	.	.	.	8a/	.	8A\J|>	.	.	.	.	.	.	.	.	.	.	.	.	.	.	.	.
.	.	.	.	.	.	.	.	8g#X/	.	8G#X\L	.	.	.	.	.	.	.	.	.	.	.	.	.	.	.	.
.	.	.	.	.	.	.	.	8a/J	.	8A\J	.	.	.	.	.	.	.	.	.	.	.	.	.	.	.	.
=22	=22	=22	=22	=22	=22	=22	=22	=22	=22	=22	=22	=22	=22	=22	=22	=22	=22	=22	=22	=22	=22	=22	=22	=22	=22	=22
4r	.	.	4r	.	1ryy	4r	.	4dd\	mf	4d\	.	.	1ryy	1ryy	1ryy	1ryy	1ryy	.	.	.	.	.	.	.	.	1ryy
2E\	.	f	2B/	f	.	2g#X/	f	2d/	.	2.D\	.	.	.	.	.	.	.	.	.	.	.	.	.	.	.	.
4E\	.	.	4B/	.	.	4g#/	.	4d/	.	.	.	.	.	.	.	.	.	.	.	.	.	.	.	.	.	.
=23	=23	=23	=23	=23	=23	=23	=23	=23	=23	=23	=23	=23	=23	=23	=23	=23	=23	=23	=23	=23	=23	=23	=23	=23	=23	=23
4AA/	.	.	4A/	.	1ryy	4a/	p	(8c#/L	.	8C#\L	.	.	1ryy	1ryy	1ryy	1ryy	1ryy	.	.	.	.	1r	.	1r	.	1ryy
.	.	.	.	.	.	.	.	8e/	.	8E\J	.	.	.	.	.	.	.	.	.	.	.	.	.	.	.	.
4r	.	.	4r	.	.	4r	.	8a/)	.	8A\L	.	.	.	.	.	.	.	.	.	.	.	.	.	.	.	.
.	.	.	.	.	.	.	.	8e/J|<	.	8E\J	.	.	.	.	.	.	.	.	.	.	.	.	.	.	.	.
4r	.	.	2r	.	.	2r	.	8cc#/L|<	.	8c#\L	.	.	.	.	.	.	.	.	.	.	.	.	.	.	.	.
.	.	.	.	.	.	.	.	8a/|<	.	8A\J	.	.	.	.	.	.	.	.	.	.	.	.	.	.	.	.
4C#/	.	.	.	.	.	.	.	8g#X/|<	.	8G#X\L	-bis	.	.	.	.	.	.	.	.	.	.	.	.	.	.	.
.	.	.	.	.	.	.	.	8a/J|<	.	8A\J	.	.	.	.	.	.	.	.	.	.	.	.	.	.	.	.
!	!	!	!	!	!	!LO:LB:g=original	!	!	!	!LO:LB:g=original	!	!	!	!	!	!	!	!	!	!	!	!	!	!	!	!
=24	=24	=24	=24	=24	=24	=24	=24	=24	=24	=24	=24	=24	=24	=24	=24	=24	=24	=24	=24	=24	=24	=24	=24	=24	=24	=24
!	!	!	!	!	!	!	!	!	!	!	!	!	!	!	!	!	!	!	!	!	!	!	!	!LO:TX:a:t=Solo	!LO:DY:t=po&colon;	!
4D\	.	.	1d\	p	1ryy	1f#/	.	2a\	.	8F#\L	Ma-	flos	1ryy	1ryy	1ryy	1ryy	1ryy	.	.	.	.	1f#/	.	2a\	p	1ryy
.	.	.	.	.	.	.	.	.	.	8D\J	.	.	.	.	.	.	.	.	.	.	.	.	.	.	.	.
4r	.	.	.	.	.	.	.	.	.	4.B\	-ter	pu-	.	.	.	.	.	.	.	.	.	.	.	.	.	.
4r	.	.	.	.	.	.	.	[2b\	.	.	.	.	.	.	.	.	.	.	.	.	.	.	.	[2b\	.	.
.	.	.	.	.	.	.	.	.	.	8F#\	pu-	.	.	.	.	.	.	.	.	.	.	.	.	.	.	.
4D\	.	.	.	.	.	.	.	.	.	16B\LL	-ris-	-ri-	.	.	.	.	.	.	.	.	.	.	.	.	.	.
.	.	.	.	.	.	.	.	.	.	16A\JJ	.	.	.	.	.	.	.	.	.	.	.	.	.	.	.	.
.	.	.	.	.	.	.	.	.	.	16G#X\LL	-si-	.	.	.	.	.	.	.	.	.	.	.	.	.	.	.
.	.	.	.	.	.	.	.	.	.	16F#\JJ	.	.	.	.	.	.	.	.	.	.	.	.	.	.	.	.
=25	=25	=25	=25	=25	=25	=25	=25	=25	=25	=25	=25	=25	=25	=25	=25	=25	=25	=25	=25	=25	=25	=25	=25	=25	=25	=25
!	!	!	!	!	!	!LO:SIC:v:o=1g/	!	!	!	!	!	!	!	!	!	!	!	!	!	!	!	!LO:SIC:v:o=1g/	!	!	!	!
4E\	.	.	1e\	.	1ryy	1g#/	.	2b\]	.	(8G#X\L	-ma	-ta-	1ryy	1ryy	1ryy	1ryy	1ryy	00r	.	00r	.	1g#	.	2b\]	.	1ryy
.	.	.	.	.	.	.	.	.	.	8E\J	.	.	.	.	.	.	.	.	.	.	.	.	.	.	.	.
4r	.	.	.	.	.	.	.	.	.	4.c#\)	.	.	.	.	.	.	.	.	.	.	.	.	.	.	.	.
4r	.	.	.	.	.	.	.	[2cc#\	.	.	.	.	.	.	.	.	.	.	.	.	.	.	.	[2cc#\	.	.
.	.	.	.	.	.	.	.	.	.	8G#\	ca-	ti-	.	.	.	.	.	.	.	.	.	.	.	.	.	.
4E\	.	.	.	.	.	.	.	.	.	16c#\LL	-stis-	.	.	.	.	.	.	.	.	.	.	.	.	.	.	.
.	.	.	.	.	.	.	.	.	.	16B\JJ	.	.	.	.	.	.	.	.	.	.	.	.	.	.	.	.
.	.	.	.	.	.	.	.	.	.	16A\LL	-si-	.	.	.	.	.	.	.	.	.	.	.	.	.	.	.
.	.	.	.	.	.	.	.	.	.	16G#\JJ	.	.	.	.	.	.	.	.	.	.	.	.	.	.	.	.
!LO:LB:g=original	!	!	!	!	!	!	!	!	!	!	!	!	!	!	!	!	!	!	!	!	!	!	!	!LO:LB:g=original	!	!
=26	=26	=26	=26	=26	=26	=26	=26	=26	=26	=26	=26	=26	=26	=26	=26	=26	=26	=26	=26	=26	=26	=26	=26	=26	=26	=26
4F#\	.	.	1f#\	.	1ryy	1a/	.	2cc#\]	.	(8A\L	-ma	-tis	1ryy	1ryy	1ryy	1ryy	1ryy	.	.	.	.	1a/	.	2cc#\]	.	1ryy
.	.	.	.	.	.	.	.	.	.	8F#\J	.	.	.	.	.	.	.	.	.	.	.	.	.	.	.	.
4r	.	.	.	.	.	.	.	.	.	4.d\)	.	.	.	.	.	.	.	.	.	.	.	.	.	.	.	.
4r	.	.	.	.	.	.	.	[2dd\	.	.	.	.	.	.	.	.	.	.	.	.	.	.	.	[2dd\	.	.
.	.	.	.	.	.	.	.	.	.	8A\	o-	.	.	.	.	.	.	.	.	.	.	.	.	.	.	.
4F#\	.	.	.	.	.	.	.	.	.	16d\LL	.	.	.	.	.	.	.	.	.	.	.	.	.	.	.	.
.	.	.	.	.	.	.	.	.	.	16c#\	.	.	.	.	.	.	.	.	.	.	.	.	.	.	.	.
.	.	.	.	.	.	.	.	.	.	16B\	.	.	.	.	.	.	.	.	.	.	.	.	.	.	.	.
.	.	.	.	.	.	.	.	.	.	16A\JJ	.	.	.	.	.	.	.	.	.	.	.	.	.	.	.	.
!	!	!	!	!	!	!	!	!LO:LB:g=original	!	!	!	!	!	!	!	!	!	!	!	!	!	!LO:LB:g=original	!	!	!	!
=27	=27	=27	=27	=27	=27	=27	=27	=27	=27	=27	=27	=27	=27	=27	=27	=27	=27	=27	=27	=27	=27	=27	=27	=27	=27	=27
4G#X\	.	.	1g#X\	.	1ryy	1b\	.	2dd\]	.	8B\L	.	.	1ryy	1ryy	1ryy	1ryy	1ryy	.	.	.	.	1b\	.	2dd\]	.	1ryy
.	.	.	.	.	.	.	.	.	.	8G#X\J	.	.	.	.	.	.	.	.	.	.	.	.	.	.	.	.
4r	.	.	.	.	.	.	.	.	.	4.e\	-ra	.	.	.	.	.	.	.	.	.	.	.	.	.	.	.
4r	.	.	.	.	.	.	.	2ee\	.	.	.	.	.	.	.	.	.	.	.	.	.	.	.	[2ee\	.	.
.	.	.	.	.	.	.	.	.	.	8B\	o-	.	.	.	.	.	.	.	.	.	.	.	.	.	.	.
4G#\	.	.	.	.	.	.	.	.	.	16e\LL	.	.	.	.	.	.	.	.	.	.	.	.	.	.	.	.
.	.	.	.	.	.	.	.	.	.	16d\	.	.	.	.	.	.	.	.	.	.	.	.	.	.	.	.
.	.	.	.	.	.	.	.	.	.	16c#\	.	.	.	.	.	.	.	.	.	.	.	.	.	.	.	.
.	.	.	.	.	.	.	.	.	.	16B\JJ	.	.	.	.	.	.	.	.	.	.	.	.	.	.	.	.
!	!	!	!LO:LB:g=original	!	!	!	!	!	!	!LO:LB:g=original	!	!	!	!	!	!	!	!	!	!	!	!	!	!	!	!
=28	=28	=28	=28	=28	=28	=28	=28	=28	=28	=28	=28	=28	=28	=28	=28	=28	=28	=28	=28	=28	=28	=28	=28	=28	=28	=28
4A\	.	.	4a\	.	1ryy	4cc#\	.	4cc#\	.	8c#\L	.	.	1ryy	1ryy	1ryy	1ryy	1ryy	.	.	.	.	4cc#\	.	4ee\]	.	1ryy
.	.	.	.	.	.	.	.	.	.	8e\J	.	.	.	.	.	.	.	.	.	.	.	.	.	.	.	.
!	!	!	!	!	!	!	!	!LO:SIC:v:o=4g/	!	!	!	!	!	!	!	!	!	!	!	!	!	!	!	!	!	!
4E\	.	.	4e\	.	.	4r	.	4g#	.	8G#X\L	.	.	.	.	.	.	.	.	.	.	.	4r	.	4r	.	.
.	.	.	.	.	.	.	.	.	.	8B\J	.	.	.	.	.	.	.	.	.	.	.	.	.	.	.	.
4F#\	.	.	4f#\	.	.	2r	.	4a/	.	8A\L	.	.	.	.	.	.	.	.	.	.	.	2r	.	2r	.	.
.	.	.	.	.	.	.	.	.	.	8c#\J	.	.	.	.	.	.	.	.	.	.	.	.	.	.	.	.
4C#/	.	.	4A/	.	.	.	.	4e/	.	8E\L	.	.	.	.	.	.	.	.	.	.	.	.	.	.	.	.
.	.	.	.	.	.	.	.	.	.	8Gn\J	.	.	.	.	.	.	.	.	.	.	.	.	.	.	.	.
=29	=29	=29	=29	=29	=29	=29	=29	=29	=29	=29	=29	=29	=29	=29	=29	=29	=29	=29	=29	=29	=29	=29	=29	=29	=29	=29
!	!	!	!	!	!	!	!	!LO:TX:t=P:problem=mixed beam	!	!	!	!	!	!	!	!	!	!	!	!	!	!	!	!	!	!
4D\	.	.	4d\	.	1ryy	2r	.	8f#/L	.	8F#\L	-ra	.	1ryy	1ryy	1ryy	1ryy	1ryy	1r	.	1r	.	1r	.	1r	.	1ryy
.	.	.	.	.	.	.	.	8d/	.	8D\J	.	.	.	.	.	.	.	.	.	.	.	.	.	.	.	.
4F#\	.	.	4r	.	.	.	.	8dd\	.	8d\L	pro	.	.	.	.	.	.	.	.	.	.	.	.	.	.	.
.	.	.	.	.	.	.	.	8b\J	.	8B\J	.	.	.	.	.	.	.	.	.	.	.	.	.	.	.	.
!LO:TX:t=P:problem=mixed beam	!	!	!	!	!	!	!	!	!	!	!	!	!	!	!	!	!	!	!	!	!	!	!	!	!	!
8E\L	.	.	8r	.	.	8r	.	2bT\	.	2B\	no-	.	.	.	.	.	.	.	.	.	.	.	.	.	.	.
8E\	.	.	8g#X\L	.	.	8dd\L|>	.	.	.	.	.	.	.	.	.	.	.	.	.	.	.	.	.	.	.	.
8EE/	.	.	8g#\	.	.	8dd\|>	.	.	.	.	.	.	.	.	.	.	.	.	.	.	.	.	.	.	.	.
8EE/J	.	.	8g#\J	.	.	8dd\J|>	.	.	.	.	.	.	.	.	.	.	.	.	.	.	.	.	.	.	.	.
=30	=30	=30	=30	=30	=30	=30	=30	=30	=30	=30	=30	=30	=30	=30	=30	=30	=30	=30	=30	=30	=30	=30	=30	=30	=30	=30
*	*	*	*	*	*	*^	*	*^	*	*	*	*	*	*	*	*	*	*	*	*	*	*	*	*	*	*
4AA/	.	.	2e\	.	1ryy	2cc#\	2ryy	.	2a\	2ryy	.	2A\	-bis.	.	1ryy	1ryy	1ryy	1ryy	1ryy	2r	.	2r	.	2r	.	2r	.	1ryy
4A\	.	.	.	.	.	.	.	.	.	.	.	.	.	.	.	.	.	.	.	.	.	.	.	.	.	.	.	.
*	*	*	*	*	*	*	*	*	*cue	*	*	*	*	*	*	*	*	*	*	*	*	*	*	*	*	*	*	*
!	!	!	!LO:TX:a:t=VS&colon;	!	!	!LO:TX:b:t=Oboi	!	!	!LO:TX:b:t=Oboi	!	!	!	!	!	!	!	!	!	!	!	!	!	!	!	!	!	!	!
4AA/	.	.	2r	.	.	2r	4r	.	8ee/L	2r	.	2r	.	.	.	.	.	.	.	4r	.	4r	.	4r	.	4r	.	.
.	.	.	.	.	.	.	.	.	8cc#/	.	.	.	.	.	.	.	.	.	.	.	.	.	.	.	.	.	.	.
*	*	*	*	*	*	*	*cue	*	*	*	*	*	*	*	*	*	*	*	*	*	*	*	*	*	*	*	*	*
!	!	!	!	!	!	!	!	!	!	!	!	!	!	!	!	!	!	!	!	!LO:TX:a:t=Solo	!	!LO:TX:a:t=Solo	!	!LO:TX:a:t=Solo	!	!LO:TX:a:rj:t=Solo	!	!
4r	.	.	.	.	.	.	8cc#/L	.	8dd/	.	.	.	.	.	.	.	.	.	.	8cc#\L	.	8ee\L	.	8cc#\L	.	(8ee\L	.	.
.	.	.	.	.	.	.	8b/J	.	8b/J	.	.	.	.	.	.	.	.	.	.	8b\J	.	8dd\J	.	8b\J	.	8dd\J)	.	.
!	!	!	!LO:PB:g=original	!	!	!	!	!	!	!	!	!	!	!	!	!	!	!	!	!	!	!LO:LB:g=original	!	!	!	!	!	!
=31	=31	=31	=31	=31	=31	=31	=31	=31	=31	=31	=31	=31	=31	=31	=31	=31	=31	=31	=31	=31	=31	=31	=31	=31	=31	=31	=31	=31
4r	.	.	4r	.	1ryy	1r	4a\	.	4cc#/	1r	.	00r	.	.	1ryy	1ryy	1ryy	1ryy	1ryy	4a\	.	4cc#\	.	4a/|<	.	4cc#\|>	.	1ryy
4AA/	.	p	4A\|>	.	.	.	4a\	.	4cc#/	.	.	.	.	.	.	.	.	.	.	4a\	.	4cc#\	.	4a/|<	.	4cc#\|>	.	.
4C#/	.	.	(4c#\	.	.	.	4a\	.	4cc#/	.	.	.	.	.	.	.	.	.	.	4a\	.	4cc#\	.	4a/|<	.	4cc#\|>	.	.
4D/	.	.	4d\)	.	.	.	4b\	.	4dd/	.	.	.	.	.	.	.	.	.	.	4b\	.	4dd\	.	4b/|<	.	4dd\|>	.	.
=32	=32	=32	=32	=32	=32	=32	=32	=32	=32	=32	=32	=32	=32	=32	=32	=32	=32	=32	=32	=32	=32	=32	=32	=32	=32	=32	=32	=32
*	*	*	*	*	*	*	*	*	*	*	*	*	*	*	*	*	*	*	*	*2\right	*	*2\right	*	*	*	*	*	*
2E\	.	.	2e\	.	1ryy	1r	2a\	.	2cc#/	1r	.	.	.	.	1ryy	1ryy	1ryy	1ryy	1ryy	2a\	.	2cc#\	.	(2a/	.	(2cc#\	.	1ryy
!	!	!	!	!	!	!	!	!	!	!	!	!	!	!	!	!	!	!	!	!	!	!	!	!LO:SIC:v:o=4g/)	!	!	!	!
4EE/	.	.	4E/	.	.	.	4g\	.	4b/	.	.	.	.	.	.	.	.	.	.	4e/	.	4b\	.	4g#/	.	4b\)	.	.
4r	.	.	4r	.	.	.	4r	.	4e/	.	.	.	.	.	.	.	.	.	.	4r	.	4e/	.	4r	.	4e/|>	.	.
=33	=33	=33	=33	=33	=33	=33	=33	=33	=33	=33	=33	=33	=33	=33	=33	=33	=33	=33	=33	=33	=33	=33	=33	=33	=33	=33	=33	=33
2AA/	.	.	2A/	.	1ryy	1r	4c#/	.	4a/	1r	.	.	.	.	1ryy	1ryy	1ryy	1ryy	1ryy	4c#/	.	4a\	.	4a/|<	.	4a/|>	.	1ryy
.	.	.	.	.	.	.	4c#/	.	4a/	.	.	.	.	.	.	.	.	.	.	4c#/	.	4a\	.	4a/|<	.	4a/|>	.	.
2E\	.	.	2e\	.	.	.	4e/	.	4b/	.	.	.	.	.	.	.	.	.	.	4e/	.	4b\	.	4g#X'/	.	4b\|>	.	.
.	.	.	.	.	.	.	4e/	.	4b/	.	.	.	.	.	.	.	.	.	.	4e/	.	4b\	.	4g#'/	.	4b\|>	.	.
=34	=34	=34	=34	=34	=34	=34	=34	=34	=34	=34	=34	=34	=34	=34	=34	=34	=34	=34	=34	=34	=34	=34	=34	=34	=34	=34	=34	=34
4A\	.	.	4a\	.	1ryy	1r	8a\L	.	(<8cc#/L	1r	.	.	.	.	1ryy	1ryy	1ryy	1ryy	1ryy	4a\	.	8cc#\L	.	(8a/L	.	(8cc#\L	.	1ryy
.	.	.	.	.	.	.	8b\	.	8dd/	.	.	.	.	.	.	.	.	.	.	.	.	8dd\	.	8b/	.	8dd\	.	.
4E\	.	.	4e\	.	.	.	8a\	.	8cc#/	.	.	.	.	.	.	.	.	.	.	8a/L	.	8cc#\	.	8a/	.	8cc#\	.	.
!	!	!	!	!	!	!	!	!	!	!	!	!	!	!	!	!	!	!	!	!	!	!	!	!LO:SIC:v:o=8g/J)	!	!	!	!
.	.	.	.	.	.	.	8e\J	.	8b/J)	.	.	.	.	.	.	.	.	.	.	8e/J	.	8b\J	.	8g#/	.	8b\J)	.	.
4AA/	.	.	4A/	.	.	.	4c#/	.	4a/	.	.	.	.	.	.	.	.	.	.	4c#/	.	4a\	.	4a/	.	4a\	.	.
4r	.	.	4r	.	.	.	8cc#\L	.	(<8ee/L	.	.	.	.	.	.	.	.	.	.	8cc#\L	.	8ee\L	.	8cc#/L	.	(8ee\L	.	.
.	.	.	.	.	.	.	8b\J	.	8dd/J)	.	.	.	.	.	.	.	.	.	.	8b\J	.	8dd\J	.	8b/J	.	8dd\J)	.	.
!LO:LB:g=original	!	!	!	!	!	!	!	!	!	!	!	!	!	!	!	!	!	!	!	!	!	!	!	!	!	!	!	!
=35	=35	=35	=35	=35	=35	=35	=35	=35	=35	=35	=35	=35	=35	=35	=35	=35	=35	=35	=35	=35	=35	=35	=35	=35	=35	=35	=35	=35
4r	.	.	4r	.	1ryy	1r	4a\	.	4cc#/	1r	.	00r	.	.	1ryy	1ryy	1ryy	1ryy	1ryy	4a\	.	4cc#\	.	4a/|<	.	4cc#\|>	.	1ryy
4AA/	.	.	4A/|<	.	.	.	4a\	.	4cc#/	.	.	.	.	.	.	.	.	.	.	4a\	.	4cc#\	.	4a/|<	.	4cc#\|>	.	.
4C#\	.	.	(4c#/	.	.	.	4a\	.	4cc#/	.	.	.	.	.	.	.	.	.	.	4a\	.	4cc#\	.	4a'/	.	4cc#\|>	.	.
4D\	.	.	4d/)	.	.	.	4b\	.	4dd/	.	.	.	.	.	.	.	.	.	.	4b\	.	4dd\	.	4b'/	.	4dd\|>	.	.
=36	=36	=36	=36	=36	=36	=36	=36	=36	=36	=36	=36	=36	=36	=36	=36	=36	=36	=36	=36	=36	=36	=36	=36	=36	=36	=36	=36	=36
2E\	.	.	(2e\	.	1ryy	1r	2a\	.	(<2cc#/	1r	.	.	.	.	1ryy	1ryy	1ryy	1ryy	1ryy	2a\	.	2cc#\	.	(2a/	.	(2cc#\	.	1ryy
!	!	!	!	!	!	!LO:SIC:v:o==37	!	!	!	!	!	!	!	!	!	!	!	!	!	!	!	!	!	!LO:SIC:v:o=4g/)	!	!	!	!
4EE/	.	.	4E/)	.	.	.	4g\	.	4b/)	.	.	.	.	.	.	.	.	.	.	4e/	.	4b\	.	4g#/	.	4b\)	.	.
4r	.	.	4r	.	.	.	4r	.	4r	.	.	.	.	.	.	.	.	.	.	4r	.	4r	.	4r	.	4r	.	.
=37	=37	=37	=37	=37	=37	4g#	=37	=37	=37	=37	=37	=37	=37	=37	=37	=37	=37	=37	=37	=37	=37	=37	=37	=37	=37	=37	=37	=37
2E\	.	.	(2e\	.	1ryy	1r	2b\	.	(<2dd/	1r	.	.	.	.	1ryy	1ryy	1ryy	1ryy	1ryy	2b\	.	2dd\	.	(2b\	.	(2dd\	.	1ryy
4AA/	.	.	4A/)	.	.	.	4a\	.	4cc#/)	.	.	.	.	.	.	.	.	.	.	4a\	.	4cc#\	.	4a\)	.	4cc#\)	.	.
4r	.	.	4r	.	.	.	4e\	.	4ee/	.	.	.	.	.	.	.	.	.	.	4r	.	4r	.	4e/	.	4ee\	.	.
*	*	*	*	*	*	*v	*v	*	*	*	*	*	*	*	*	*	*	*	*	*	*	*	*	*	*	*	*	*
*	*	*	*	*	*	*	*	*v	*v	*	*	*	*	*	*	*	*	*	*	*	*	*	*	*	*	*	*
!	!	!	!	!	!	!	!	!	!	!	!	!	!	!	!	!	!	!	!	!	!	!	!	!LO:LB:g=original	!	!
=38	=38	=38	=38	=38	=38	=38	=38	=38	=38	=38	=38	=38	=38	=38	=38	=38	=38	=38	=38	=38	=38	=38	=38	=38	=38	=38
*	*	*	*	*	*	*	*	*Xcue	*	*	*	*	*	*	*	*	*	*	*	*	*	*	*	*	*	*
!LO:TX:b:t=pedal	!	!	!	!	!	!	!	!	!	!	!	!	!	!	!	!	!	!	!LO:DY:t=po&colon;	!	!	!	!	!	!LO:DY:t=po&colon;	!
2G#X\	.	.	1e\	.	1ryy	(4B/	mf	8r	.	.	.	.	1ryy	1ryy	1ryy	1ryy	1ryy	2b\	p	2dd\	p	1e/	p	1ee\	p	1ryy
.	.	.	.	.	.	.	.	(4dd\	mf	.	.	.	.	.	.	.	.	.	.	.	.	.	.	.	.	.
.	.	.	.	.	.	4G#X/)	.	.	.	.	.	.	.	.	.	.	.	.	.	.	.	.	.	.	.	.
.	.	.	.	.	.	.	.	4b\	.	.	.	.	.	.	.	.	.	.	.	.	.	.	.	.	.	.
2A\	.	.	.	.	.	(4A/	.	.	.	.	.	.	.	.	.	.	.	2a\	.	2cc#\	.	.	.	.	.	.
.	.	.	.	.	.	.	.	4cc#\	.	.	.	.	.	.	.	.	.	.	.	.	.	.	.	.	.	.
.	.	.	.	.	.	4c#/)	.	.	.	.	.	.	.	.	.	.	.	.	.	.	.	.	.	.	.	.
.	.	.	.	.	.	.	.	[8a\)	.	.	.	.	.	.	.	.	.	.	.	.	.	.	.	.	.	.
=39	=39	=39	=39	=39	=39	=39	=39	=39	=39	=39	=39	=39	=39	=39	=39	=39	=39	=39	=39	=39	=39	=39	=39	=39	=39	=39
2E\	.	.	1e\	.	1ryy	(4d/	.	8a\]	.	00r	.	.	1ryy	1ryy	1ryy	1ryy	1ryy	2e/	.	2b\	.	1e/	.	1ee\	.	1ryy
.	.	.	.	.	.	.	.	4b\	.	.	.	.	.	.	.	.	.	.	.	.	.	.	.	.	.	.
.	.	.	.	.	.	4B/)	.	.	.	.	.	.	.	.	.	.	.	.	.	.	.	.	.	.	.	.
!	!	!	!	!	!	!	!	!LO:SIC:v:o=4g\	!	!	!	!	!	!	!	!	!	!	!	!	!	!	!	!	!	!
.	.	.	.	.	.	.	.	4g#\	.	.	.	.	.	.	.	.	.	.	.	.	.	.	.	.	.	.
2AA/	.	.	.	.	.	(4c#/	.	.	.	.	.	.	.	.	.	.	.	2a\	.	2cc#\	.	.	.	.	.	.
.	.	.	.	.	.	.	.	4a\	.	.	.	.	.	.	.	.	.	.	.	.	.	.	.	.	.	.
.	.	.	.	.	.	4A/)	.	.	.	.	.	.	.	.	.	.	.	.	.	.	.	.	.	.	.	.
.	.	.	.	.	.	.	.	[8cc#\	.	.	.	.	.	.	.	.	.	.	.	.	.	.	.	.	.	.
!	!	!	!	!	!	!	!	!LO:LB:g=original	!	!	!	!	!	!	!	!	!	!	!	!	!	!LO:LB:g=original	!	!	!	!
=40	=40	=40	=40	=40	=40	=40	=40	=40	=40	=40	=40	=40	=40	=40	=40	=40	=40	=40	=40	=40	=40	=40	=40	=40	=40	=40
2G#X\	.	.	1e\	.	1ryy	(4B/	.	8cc#\]	.	.	.	.	1ryy	1ryy	1ryy	1ryy	1ryy	2e/	.	2b\	.	1e/	.	1ee\	.	1ryy
.	.	.	.	.	.	.	.	4dd\	.	.	.	.	.	.	.	.	.	.	.	.	.	.	.	.	.	.
.	.	.	.	.	.	4G#X/)	.	.	.	.	.	.	.	.	.	.	.	.	.	.	.	.	.	.	.	.
.	.	.	.	.	.	.	.	4b\	.	.	.	.	.	.	.	.	.	.	.	.	.	.	.	.	.	.
2A\	.	.	.	.	.	(4A/	.	.	.	.	.	.	.	.	.	.	.	2a\	.	2cc#\	.	.	.	.	.	.
.	.	.	.	.	.	.	.	4cc#\	.	.	.	.	.	.	.	.	.	.	.	.	.	.	.	.	.	.
.	.	.	.	.	.	4c#/)	.	.	.	.	.	.	.	.	.	.	.	.	.	.	.	.	.	.	.	.
.	.	.	.	.	.	.	.	8a\	.	.	.	.	.	.	.	.	.	.	.	.	.	.	.	.	.	.
=41	=41	=41	=41	=41	=41	=41	=41	=41	=41	=41	=41	=41	=41	=41	=41	=41	=41	=41	=41	=41	=41	=41	=41	=41	=41	=41
2G#X\	.	.	1e\	.	1ryy	4B/	.	8a\	.	.	.	.	1ryy	1ryy	1ryy	1ryy	1ryy	2e/	.	2b\	.	1e/	.	1ee\	.	1ryy
.	.	.	.	.	.	.	.	4dd\	.	.	.	.	.	.	.	.	.	.	.	.	.	.	.	.	.	.
.	.	.	.	.	.	4G#X/	.	.	.	.	.	.	.	.	.	.	.	.	.	.	.	.	.	.	.	.
.	.	.	.	.	.	.	.	4b\	.	.	.	.	.	.	.	.	.	.	.	.	.	.	.	.	.	.
2A\	.	.	.	.	.	4A/	.	.	.	.	.	.	.	.	.	.	.	2c#/	.	2a\	.	.	.	.	.	.
.	.	.	.	.	.	.	.	4cc#\	.	.	.	.	.	.	.	.	.	.	.	.	.	.	.	.	.	.
.	.	.	.	.	.	4c#/	.	.	.	.	.	.	.	.	.	.	.	.	.	.	.	.	.	.	.	.
.	.	.	.	.	.	.	.	8a\	.	.	.	.	.	.	.	.	.	.	.	.	.	.	.	.	.	.
=42	=42	=42	=42	=42	=42	=42	=42	=42	=42	=42	=42	=42	=42	=42	=42	=42	=42	=42	=42	=42	=42	=42	=42	=42	=42	=42
4E\	.	.	4e\	.	1ryy	(8e/L	.	8e/L	.	.	.	.	1ryy	1ryy	1ryy	1ryy	1ryy	4E/	.	4e/	.	4e/	.	4ee\	.	1ryy
.	.	.	.	.	.	16f#/L	.	16f#/L	.	.	.	.	.	.	.	.	.	.	.	.	.	.	.	.	.	.
.	.	.	.	.	.	16g#X/JJ)	.	16g#X/JJ	.	.	.	.	.	.	.	.	.	.	.	.	.	.	.	.	.	.
4r	.	.	4r	.	.	(16a\LL	.	(16a\LL	.	.	.	.	.	.	.	.	.	4r	.	4r	.	4r	.	4r	.	.
.	.	.	.	.	.	16b\	.	16b\	.	.	.	.	.	.	.	.	.	.	.	.	.	.	.	.	.	.
.	.	.	.	.	.	16cc#\	.	16cc#\	.	.	.	.	.	.	.	.	.	.	.	.	.	.	.	.	.	.
.	.	.	.	.	.	16dd#X\JJ)	.	16dd#X\JJ)	.	.	.	.	.	.	.	.	.	.	.	.	.	.	.	.	.	.
4r	.	.	4r	.	.	(16ee\LL	.	(16ee\LL	.	.	.	.	.	.	.	.	.	2r	.	2r	.	2r	.	2r	.	.
.	.	.	.	.	.	16ff#\	.	16ff#\	.	.	.	.	.	.	.	.	.	.	.	.	.	.	.	.	.	.
!	!	!	!	!	!	!LO:SIC:v:o=16gg\	!	!LO:SIC:v:o=16gg\	!	!	!	!	!	!	!	!	!	!	!	!	!	!	!	!	!	!
.	.	.	.	.	.	16gg#\	.	16gg#	.	.	.	.	.	.	.	.	.	.	.	.	.	.	.	.	.	.
.	.	.	.	.	.	16aa\JJ)	.	16aa\JJ)	.	.	.	.	.	.	.	.	.	.	.	.	.	.	.	.	.	.
!LO:TX:b:t=org&colon;	!	!	!	!	!	!	!	!	!	!	!	!	!	!	!	!	!	!	!	!	!	!	!	!	!	!
4E\	#	.	4g#X\	.	.	8bb\L	.	8bb\L	.	.	.	.	.	.	.	.	.	.	.	.	.	.	.	.	.	.
.	.	.	.	.	.	8ddn\J	.	8ddn\J	.	.	.	.	.	.	.	.	.	.	.	.	.	.	.	.	.	.
!	!	!	!LO:LB:g=original	!	!	!	!	!	!	!	!	!	!	!	!	!	!	!	!	!	!	!	!	!	!	!
!	!	!	!	!	!	!	!	!	!	!	!	!	!	!	!	!	!	!LO:LB:g=original	!	!	!	!	!	!	!	!
=43	=43	=43	=43	=43	=43	=43	=43	=43	=43	=43	=43	=43	=43	=43	=43	=43	=43	=43	=43	=43	=43	=43	=43	=43	=43	=43
4A\	.	.	4a\	.	1ryy	8a/	.	8cc#\	.	00r	.	.	1ryy	1ryy	1ryy	1ryy	1ryy	1r	.	1r	.	1r	.	1r	.	1ryy
.	.	.	.	.	.	4cc#\	.	4aa\	.	.	.	.	.	.	.	.	.	.	.	.	.	.	.	.	.	.
4C#\	.	.	4c#\	.	.	.	.	.	.	.	.	.	.	.	.	.	.	.	.	.	.	.	.	.	.	.
.	.	.	.	.	.	8a/	.	8ee\	.	.	.	.	.	.	.	.	.	.	.	.	.	.	.	.	.	.
4D\	.	.	4d\	.	.	8dd\	.	8ff#\	.	.	.	.	.	.	.	.	.	.	.	.	.	.	.	.	.	.
.	.	.	.	.	.	4b\	.	4dd\	.	.	.	.	.	.	.	.	.	.	.	.	.	.	.	.	.	.
4F#\	.	.	4f#\	.	.	.	.	.	.	.	.	.	.	.	.	.	.	.	.	.	.	.	.	.	.	.
.	.	.	.	.	.	8d/	.	8b\	.	.	.	.	.	.	.	.	.	.	.	.	.	.	.	.	.	.
=44	=44	=44	=44	=44	=44	=44	=44	=44	=44	=44	=44	=44	=44	=44	=44	=44	=44	=44	=44	=44	=44	=44	=44	=44	=44	=44
*tremolo	*	*	*tremolo	*	*	*	*	*	*	*	*	*	*	*	*	*	*	*	*	*	*	*	*	*	*	*
8E\L	4	.	8e\L	.	1ryy	4a/	.	(8cc#\L	.	.	.	.	1ryy	1ryy	1ryy	1ryy	1ryy	2a\	.	2cc#\	.	2a/	.	2cc#\	.	1ryy
8E\	.	.	8e\	.	.	.	.	8ee\)	.	.	.	.	.	.	.	.	.	.	.	.	.	.	.	.	.	.
8E\	.	.	8e\	.	.	(8c#/L	.	(8a\	.	.	.	.	.	.	.	.	.	.	.	.	.	.	.	.	.	.
8E\J	.	.	8e\J	.	.	8e/J)	.	8cc#\J)	.	.	.	.	.	.	.	.	.	.	.	.	.	.	.	.	.	.
!	!	!	!	!	!	!	!	!	!	!	!	!	!	!	!	!	!	!	!	!	!	!LO:SIC:v:o=2g/	!	!	!	!
8EE/L	#	.	8e\L	.	.	(8d/L	.	(8b\L	.	.	.	.	.	.	.	.	.	2e/	.	2b\	.	2g#/	.	2b\	.	.
8EE/	.	.	8e\	.	.	8f#/)	.	8dd\)	.	.	.	.	.	.	.	.	.	.	.	.	.	.	.	.	.	.
8EE/	.	.	8e\	.	.	(8B/	.	(8g#X\	.	.	.	.	.	.	.	.	.	.	.	.	.	.	.	.	.	.
8EE/J	.	.	8e\J	.	.	8d/J)	.	8b\J)	.	.	.	.	.	.	.	.	.	.	.	.	.	.	.	.	.	.
*Xtremolo	*	*	*Xtremolo	*	*	*	*	*	*	*	*	*	*	*	*	*	*	*	*	*	*	*	*	*	*	*
!LO:LB:g=original	!	!	!	!	!	!LO:LB:g=original	!	!	!	!	!	!	!	!	!	!	!	!	!	!LO:LB:g=original	!	!	!	!	!	!
=45	=45	=45	=45	=45	=45	=45	=45	=45	=45	=45	=45	=45	=45	=45	=45	=45	=45	=45	=45	=45	=45	=45	=45	=45	=45	=45
!LO:TX:b:t=pedal	!	!	!	!	!	!	!	!	!	!	!	!	!	!	!	!	!	!	!	!	!	!	!	!	!	!
2AA/	.	.	2a\	.	1ryy	(8c#/L	.	4a\	.	.	.	.	1ryy	1ryy	1ryy	1ryy	1ryy	4A/	.	4a\	.	4a/	.	1ee\	.	1ryy
.	.	.	.	.	.	8e/	.	.	.	.	.	.	.	.	.	.	.	.	.	.	.	.	.	.	.	.
.	.	.	.	.	.	8c#/	.	8r	.	.	.	.	.	.	.	.	.	4r	.	4r	.	8r	.	.	.	.
.	.	.	.	.	.	8e/J)	.	8cc#\|>	.	.	.	.	.	.	.	.	.	.	.	.	.	8cc#\	.	.	.	.
2E\	.	.	2g#X\	.	.	(8d/L	.	(8b\L	.	.	.	.	.	.	.	.	.	2e/	.	2b\	.	4dd\	.	.	.	.
.	.	.	.	.	.	8e/	.	8dd\)	.	.	.	.	.	.	.	.	.	.	.	.	.	.	.	.	.	.
.	.	.	.	.	.	8d/	.	(8g#X\	.	.	.	.	.	.	.	.	.	.	.	.	.	4b\	.	.	.	.
.	.	.	.	.	.	8e/J)	.	8b\J)	.	.	.	.	.	.	.	.	.	.	.	.	.	.	.	.	.	.
=46	=46	=46	=46	=46	=46	=46	=46	=46	=46	=46	=46	=46	=46	=46	=46	=46	=46	=46	=46	=46	=46	=46	=46	=46	=46	=46
2AA/	.	.	2a\	.	1ryy	(8c#/L	.	4a\	.	.	.	.	1ryy	1ryy	1ryy	1ryy	1ryy	4a\	.	4cc#\	.	4cc#\	.	1ee\	.	1ryy
.	.	.	.	.	.	8e/	.	.	.	.	.	.	.	.	.	.	.	.	.	.	.	.	.	.	.	.
.	.	.	.	.	.	8c#/	.	8r	.	.	.	.	.	.	.	.	.	4r	.	4r	.	8r	.	.	.	.
.	.	.	.	.	.	8e/J)	.	8cc#\|>	.	.	.	.	.	.	.	.	.	.	.	.	.	8cc#\	.	.	.	.
2E\	.	.	2g#X\	.	.	(8d/L	.	(8b\L	.	.	.	.	.	.	.	.	.	2e/	.	2b\	.	4dd\	.	.	.	.
.	.	.	.	.	.	8e/	.	8dd\)	.	.	.	.	.	.	.	.	.	.	.	.	.	.	.	.	.	.
.	.	.	.	.	.	8d/	.	(8g#X\	.	.	.	.	.	.	.	.	.	.	.	.	.	4b\	.	.	.	.
.	.	.	.	.	.	8e/J)	.	8b\J)	.	.	.	.	.	.	.	.	.	.	.	.	.	.	.	.	.	.
!	!	!	!	!	!	!	!	!LO:LB:g=original	!	!	!	!	!	!	!	!	!	!	!	!	!	!	!	!	!	!
=47	=47	=47	=47	=47	=47	=47	=47	=47	=47	=47	=47	=47	=47	=47	=47	=47	=47	=47	=47	=47	=47	=47	=47	=47	=47	=47
!LO:TX:b:t=org&colon;	!	!	!	!	!	!	!	!	!	!LO:TX:b:t=VS	!	!	!	!	!	!	!	!	!	!	!	!	!	!	!	!
4AA/	.	.	4a\	.	1ryy	4c#/	.	4a\	.	1r	.	.	1ryy	1ryy	1ryy	1ryy	1ryy	4c#/	.	4a\	.	4cc#\	.	4ee\	.	1ryy
4AA/	.	.	4a\	.	.	4A/ 4e/ 4cc#/	.	4a\ 4aa\	.	.	.	.	.	.	.	.	.	8A/L	.	8c#/L	.	4cc#\	.	4ee\	.	.
.	.	.	.	.	.	.	.	.	.	.	.	.	.	.	.	.	.	8A/J	.	8c#/J	.	.	.	.	.	.
4AA/	.	.	4a\	.	.	4A/ 4e/ 4cc#/	.	4a\ 4aa\	.	.	.	.	.	.	.	.	.	4A/	.	4c#/	.	4cc#\	.	4ee\	.	.
4r	.	.	4r	.	.	4r	.	4r	.	.	.	.	.	.	.	.	.	4r	.	4r	.	4r	.	4r	.	.
!	!	!	!	!	!	!	!	!	!	!LO:PB:g=original	!	!	!	!	!	!	!	!	!	!	!	!	!	!	!	!
=48	=48	=48	=48	=48	=48	=48	=48	=48	=48	=48	=48	=48	=48	=48	=48	=48	=48	=48	=48	=48	=48	=48	=48	=48	=48	=48
*	*	*	*	*	*	*tremolo	*	*	*	*	*	*	*	*	*	*	*	*	*	*	*	*	*	*	*	*
!	!	!	!LO:TX:a:t=Vox	!	!	!LO:TX:a:t=Vox	!	!	!	!	!	!	!	!	!	!	!	!	!	!	!	!	!	!	!	!
!	!	!	!	!	!	!	!	!	!LO:DY:t=po&colon;	!	!	!	!	!	!	!	!	!	!	!	!	!	!	!	!	!
8A\L	.	p	2.c#/	p	1ryy	(16cc#\LL	p	2.aa\	p	4A\	Ma-	Li-	1ryy	1ryy	1ryy	1ryy	1ryy	1r	.	1r	.	1r	.	1r	.	1ryy
.	.	.	.	.	.	16ee\	.	.	.	.	.	.	.	.	.	.	.	.	.	.	.	.	.	.	.	.
8A\	.	.	.	.	.	16cc#\	.	.	.	.	.	.	.	.	.	.	.	.	.	.	.	.	.	.	.	.
.	.	.	.	.	.	16ee\	.	.	.	.	.	.	.	.	.	.	.	.	.	.	.	.	.	.	.	.
8A\	.	.	.	.	.	16cc#\	.	.	.	8A\	-ter	-li-	.	.	.	.	.	.	.	.	.	.	.	.	.	.
.	.	.	.	.	.	16ee\	.	.	.	.	.	.	.	.	.	.	.	.	.	.	.	.	.	.	.	.
8A\J	.	.	.	.	.	16cc#\	.	.	.	8A\	in-	-um	.	.	.	.	.	.	.	.	.	.	.	.	.	.
.	.	.	.	.	.	16ee\JJ)	.	.	.	.	.	.	.	.	.	.	.	.	.	.	.	.	.	.	.	.
*tremolo	*	*	*	*	*	*	*	*	*	*	*	*	*	*	*	*	*	*	*	*	*	*	*	*	*	*
8A\L	.	.	.	.	.	(16cc#\LL	.	.	.	4A\	-vi-	Ca-	.	.	.	.	.	.	.	.	.	.	.	.	.	.
.	.	.	.	.	.	16ee\	.	.	.	.	.	.	.	.	.	.	.	.	.	.	.	.	.	.	.	.
8A\	.	.	.	.	.	16cc#\	.	.	.	.	.	.	.	.	.	.	.	.	.	.	.	.	.	.	.	.
.	.	.	.	.	.	16ee\	.	.	.	.	.	.	.	.	.	.	.	.	.	.	.	.	.	.	.	.
!	!	!	!	!	!	!	!	!LO:TX:a:t=Vox	!	!	!	!	!	!	!	!	!	!	!	!	!	!	!	!	!	!
8A\	.	.	4A/	.	.	16cc#\	.	4ee\	.	4E\	-o-	-sti-	.	.	.	.	.	.	.	.	.	.	.	.	.	.
.	.	.	.	.	.	16ee\	.	.	.	.	.	.	.	.	.	.	.	.	.	.	.	.	.	.	.	.
8A\J	.	.	.	.	.	16cc#\	.	.	.	.	.	.	.	.	.	.	.	.	.	.	.	.	.	.	.	.
.	.	.	.	.	.	16ee\JJ)	.	.	.	.	.	.	.	.	.	.	.	.	.	.	.	.	.	.	.	.
*	*	*	*	*	*	*Xtremolo	*	*	*	*	*	*	*	*	*	*	*	*	*	*	*	*	*	*	*	*
=49	=49	=49	=49	=49	=49	=49	=49	=49	=49	=49	=49	=49	=49	=49	=49	=49	=49	=49	=49	=49	=49	=49	=49	=49	=49	=49
8A\L	.	.	4d\	.	1ryy	16dd\LL	.	4ff#\	.	4F#\	-la-	-ta-	1ryy	1ryy	1ryy	1ryy	1ryy	4r	.	4r	.	4r	.	4r	.	1ryy
.	.	.	.	.	.	16ff#\	.	.	.	.	.	.	.	.	.	.	.	.	.	.	.	.	.	.	.	.
8A\	.	.	.	.	.	16dd\	.	.	.	.	.	.	.	.	.	.	.	.	.	.	.	.	.	.	.	.
.	.	.	.	.	.	16ff#\JJ	.	.	.	.	.	.	.	.	.	.	.	.	.	.	.	.	.	.	.	.
8A\	.	.	4c#\	.	.	(16cc#\LL	.	4ee\	.	4E\	-ta	-tis	.	.	.	.	.	8A/L	.	8a\L	.	4cc#\	.	4ee\	.	.
.	.	.	.	.	.	16ee\	.	.	.	.	.	.	.	.	.	.	.	.	.	.	.	.	.	.	.	.
8A\J	.	.	.	.	.	16cc#\	.	.	.	.	.	.	.	.	.	.	.	8A/J	.	8a\J	.	.	.	.	.	.
.	.	.	.	.	.	16ee\JJ)	.	.	.	.	.	.	.	.	.	.	.	.	.	.	.	.	.	.	.	.
*	*	*	*	*	*	*tremolo	*	*	*	*	*	*	*	*	*	*	*	*	*	*	*	*	*	*	*	*
8A\L	.	.	2r	.	.	16cc#\LL	.	4r	.	2r	.	.	.	.	.	.	.	4A/	.	4a\	.	4cc#\	.	4ee\	.	.
.	.	.	.	.	.	16ee\	.	.	.	.	.	.	.	.	.	.	.	.	.	.	.	.	.	.	.	.
8A\	.	.	.	.	.	16cc#\	.	.	.	.	.	.	.	.	.	.	.	.	.	.	.	.	.	.	.	.
.	.	.	.	.	.	16ee\	.	.	.	.	.	.	.	.	.	.	.	.	.	.	.	.	.	.	.	.
8A\	.	.	.	.	.	16cc#\	.	(16a\LL	.	.	.	.	.	.	.	.	.	4r	.	4r	.	4r	.	4r	.	.
.	.	.	.	.	.	16ee\	.	32b\L	.	.	.	.	.	.	.	.	.	.	.	.	.	.	.	.	.	.
.	.	.	.	.	.	.	.	32cc#\JJJ	.	.	.	.	.	.	.	.	.	.	.	.	.	.	.	.	.	.
8A\J	.	.	.	.	.	16cc#\	.	32dd\LLL	.	.	.	.	.	.	.	.	.	.	.	.	.	.	.	.	.	.
.	.	.	.	.	.	.	.	32ee\	.	.	.	.	.	.	.	.	.	.	.	.	.	.	.	.	.	.
.	.	.	.	.	.	16ee\JJ	.	32ff#\	.	.	.	.	.	.	.	.	.	.	.	.	.	.	.	.	.	.
.	.	.	.	.	.	.	.	32gg#X\JJJ)	.	.	.	.	.	.	.	.	.	.	.	.	.	.	.	.	.	.
=50	=50	=50	=50	=50	=50	=50	=50	=50	=50	=50	=50	=50	=50	=50	=50	=50	=50	=50	=50	=50	=50	=50	=50	=50	=50	=50
8A\L	.	.	2.c#\	.	1ryy	16cc#\LL	.	2.aa\	.	4A\	Ma-	I-	1ryy	1ryy	1ryy	1ryy	1ryy	1r	.	1r	.	1r	.	1r	.	1ryy
.	.	.	.	.	.	16ee\	.	.	.	.	.	.	.	.	.	.	.	.	.	.	.	.	.	.	.	.
8A\	.	.	.	.	.	16cc#\	.	.	.	.	.	.	.	.	.	.	.	.	.	.	.	.	.	.	.	.
.	.	.	.	.	.	16ee\	.	.	.	.	.	.	.	.	.	.	.	.	.	.	.	.	.	.	.	.
8A\	.	.	.	.	.	16cc#\	.	.	.	8A\	-ter	-de-	.	.	.	.	.	.	.	.	.	.	.	.	.	.
.	.	.	.	.	.	16ee\	.	.	.	.	.	.	.	.	.	.	.	.	.	.	.	.	.	.	.	.
8A\J	.	.	.	.	.	16cc#\	.	.	.	8A\	in-	-a	.	.	.	.	.	.	.	.	.	.	.	.	.	.
.	.	.	.	.	.	16ee\JJ	.	.	.	.	.	.	.	.	.	.	.	.	.	.	.	.	.	.	.	.
8A\L	.	.	.	.	.	16cc#\LL	.	.	.	4A\	-te-	humi-	.	.	.	.	.	.	.	.	.	.	.	.	.	.
.	.	.	.	.	.	16ee\	.	.	.	.	.	.	.	.	.	.	.	.	.	.	.	.	.	.	.	.
8A\	.	.	.	.	.	16cc#\	.	.	.	.	.	.	.	.	.	.	.	.	.	.	.	.	.	.	.	.
.	.	.	.	.	.	16ee\	.	.	.	.	.	.	.	.	.	.	.	.	.	.	.	.	.	.	.	.
8A\	.	.	4A/	.	.	16cc#\	.	4ee\	.	4E\	-me-	-li-	.	.	.	.	.	.	.	.	.	.	.	.	.	.
.	.	.	.	.	.	16ee\	.	.	.	.	.	.	.	.	.	.	.	.	.	.	.	.	.	.	.	.
8A\J	.	.	.	.	.	16cc#\	.	.	.	.	.	.	.	.	.	.	.	.	.	.	.	.	.	.	.	.
.	.	.	.	.	.	16ee\JJ	.	.	.	.	.	.	.	.	.	.	.	.	.	.	.	.	.	.	.	.
*Xtremolo	*	*	*	*	*	*Xtremolo	*	*	*	*	*	*	*	*	*	*	*	*	*	*	*	*	*	*	*	*
=51	=51	=51	=51	=51	=51	=51	=51	=51	=51	=51	=51	=51	=51	=51	=51	=51	=51	=51	=51	=51	=51	=51	=51	=51	=51	=51
4E\	.	.	4B/	.	1ryy	16b\LL	.	4dd\|>	.	4D\	-ra-	-ta-	1ryy	1ryy	1ryy	1ryy	1ryy	4r	.	4r	.	4r	.	4r	.	1ryy
.	.	.	.	.	.	16ee\	.	.	.	.	.	.	.	.	.	.	.	.	.	.	.	.	.	.	.	.
.	.	.	.	.	.	16b\	.	.	.	.	.	.	.	.	.	.	.	.	.	.	.	.	.	.	.	.
.	.	.	.	.	.	16ee\JJ	.	.	.	.	.	.	.	.	.	.	.	.	.	.	.	.	.	.	.	.
4A\	.	.	4A/	.	.	4a\ 4ee\	.	4cc#\|>	.	4C#\	-ta	-tis	.	.	.	.	.	8A/L	.	8a\L	.	4cc#\	.	4ee\	.	.
.	.	.	.	.	.	.	.	.	.	.	.	.	.	.	.	.	.	8A/J	.	8a\J	.	.	.	.	.	.
4AA/	.	.	4r	.	.	2r	.	2r	.	4r	.	.	.	.	.	.	.	4A/	.	4a\	.	4cc#\	.	4ee\	.	.
4r	.	.	8e\L	.	.	.	.	.	.	8E/L	o-	.	.	.	.	.	.	4r	.	4r	.	4r	.	4r	.	.
.	.	.	8c#\J	.	.	.	.	.	.	8C#/J	.	.	.	.	.	.	.	.	.	.	.	.	.	.	.	.
!	!	!	!	!	!	!LO:LB:g=original	!	!	!	!	!	!	!	!	!	!	!	!	!	!	!	!	!	!	!	!
=52	=52	=52	=52	=52	=52	=52	=52	=52	=52	=52	=52	=52	=52	=52	=52	=52	=52	=52	=52	=52	=52	=52	=52	=52	=52	=52
4r	.	.	4A/	.	1ryy	4r	.	4r	.	4AA/	-ra	.	1ryy	1ryy	1ryy	1ryy	1ryy	0r	.	0r	.	0r	.	0r	.	1ryy
4C#/	.	.	4r	.	.	4e/ 4a/	.	(16a/LL	.	4r	.	.	.	.	.	.	.	.	.	.	.	.	.	.	.	.
.	.	.	.	.	.	.	.	16g#X/	.	.	.	.	.	.	.	.	.	.	.	.	.	.	.	.	.	.
.	.	.	.	.	.	.	.	16a/	.	.	.	.	.	.	.	.	.	.	.	.	.	.	.	.	.	.
.	.	.	.	.	.	.	.	16b/JJ)	.	.	.	.	.	.	.	.	.	.	.	.	.	.	.	.	.	.
4C#/	.	.	4r	.	.	4e/ 4a/	.	4a/	.	4r	.	.	.	.	.	.	.	.	.	.	.	.	.	.	.	.
4r	.	.	8f#\L	.	.	4r	.	4r	.	8F#\L	o-	.	.	.	.	.	.	.	.	.	.	.	.	.	.	.
.	.	.	8d\J	.	.	.	.	.	.	8D\J	.	.	.	.	.	.	.	.	.	.	.	.	.	.	.	.
!	!	!	!	!	!	!	!	!	!	!LO:LB:g=original	!	!	!	!	!	!	!	!	!	!	!	!	!	!	!	!
=53	=53	=53	=53	=53	=53	=53	=53	=53	=53	=53	=53	=53	=53	=53	=53	=53	=53	=53	=53	=53	=53	=53	=53	=53	=53	=53
4r	.	.	4B/	.	1ryy	4r	.	4r	.	4BB/	-ra	.	1ryy	1ryy	1ryy	1ryy	1ryy	.	.	.	.	.	.	.	.	1ryy
4D\	.	.	4r	.	.	4f#/	.	(16b/LL	.	4r	.	.	.	.	.	.	.	.	.	.	.	.	.	.	.	.
.	.	.	.	.	.	.	.	16a#X/	.	.	.	.	.	.	.	.	.	.	.	.	.	.	.	.	.	.
.	.	.	.	.	.	.	.	16b/	.	.	.	.	.	.	.	.	.	.	.	.	.	.	.	.	.	.
.	.	.	.	.	.	.	.	16cc#/JJ)	.	.	.	.	.	.	.	.	.	.	.	.	.	.	.	.	.	.
4D\	.	.	4r	.	.	4f#/	.	4b/	.	4r	.	.	.	.	.	.	.	.	.	.	.	.	.	.	.	.
4r	.	.	4a\	.	.	8ff#\L	.	(8ddd\L	.	8d\L	pro	.	.	.	.	.	.	.	.	.	.	.	.	.	.	.
.	.	.	.	.	.	8ee\J	.	8ccc#\J)	.	(8c#\J	.	.	.	.	.	.	.	.	.	.	.	.	.	.	.	.
!	!	!	!LO:LB:g=original	!	!	!	!	!	!	!	!	!	!	!	!	!	!	!	!	!	!	!	!	!	!	!
=54	=54	=54	=54	=54	=54	=54	=54	=54	=54	=54	=54	=54	=54	=54	=54	=54	=54	=54	=54	=54	=54	=54	=54	=54	=54	=54
2D\	.	.	4f#\	.	1ryy	4dd\	.	4bb\	.	4B\	no-	.	1ryy	1ryy	1ryy	1ryy	1ryy	4r	.	4r	.	1r	.	1r	.	1ryy
.	.	.	2e\	.	.	2cc#\	.	2aa\	.	2A\)	.	.	.	.	.	.	.	2a\	.	2cc#\	.	.	.	.	.	.
2E\	.	.	.	.	.	.	.	.	.	.	.	.	.	.	.	.	.	.	.	.	.	.	.	.	.	.
.	.	.	4e\	.	.	4b\	.	4gg#X\	.	4G#X\	.	.	.	.	.	.	.	4e/	.	4b\	.	.	.	.	.	.
!LO:LB:g=original	!	!	!	!	!	!	!	!	!	!	!	!	!	!	!	!	!	!	!	!	!	!	!	!	!	!
=55	=55	=55	=55	=55	=55	=55	=55	=55	=55	=55	=55	=55	=55	=55	=55	=55	=55	=55	=55	=55	=55	=55	=55	=55	=55	=55
4AA/	.	.	4e\	.	1ryy	4cc#\	.	4aa\	.	2A\	-bis	.	1ryy	1ryy	1ryy	1ryy	1ryy	4A/	.	4a\	.	4r	.	4r	.	1ryy
4A\	.	.	8e\L	.	.	16cc#\LL	.	(16aa\LL	.	.	.	.	.	.	.	.	.	8A/L	.	8a\L	.	4cc#\	.	4ee\|>	.	.
.	.	.	.	.	.	16b\	.	16gg#X\	.	.	.	.	.	.	.	.	.	.	.	.	.	.	.	.	.	.
.	.	.	8e\J	.	.	16cc#\	.	16aa\	.	.	.	.	.	.	.	.	.	8A/J	.	8a\J	.	.	.	.	.	.
.	.	.	.	.	.	16dd\JJ	.	16bb\JJ)	.	.	.	.	.	.	.	.	.	.	.	.	.	.	.	.	.	.
4AA/	.	.	4e\	.	.	4cc#\	.	4aa\	.	2r	.	.	.	.	.	.	.	4A/	.	4a\	.	4cc#\	.	4ee\|>	.	.
4r	.	.	4r	.	.	8e/L	.	8ee\L|>	.	.	.	.	.	.	.	.	.	4r	.	4r	.	4r	.	4r	.	.
.	.	.	.	.	.	8c#/J	.	8cc#\J|>	.	.	.	.	.	.	.	.	.	.	.	.	.	.	.	.	.	.
!	!	!	!	!	!	!	!	!LO:LB:g=original	!	!	!	!	!	!	!	!	!	!	!	!	!	!LO:LB:g=original	!	!	!	!
=56	=56	=56	=56	=56	=56	=56	=56	=56	=56	=56	=56	=56	=56	=56	=56	=56	=56	=56	=56	=56	=56	=56	=56	=56	=56	=56
!	!	!	!	!	!	!	!	!	!	!	!	!	!	!	!	!	!	!	!	!	!	!	!	!LO:TX:a:t=Solo	!	!
4r	.	.	4r	.	1ryy	4A/	.	4a/	.	1r	.	.	1ryy	1ryy	1ryy	1ryy	1ryy	4r	.	4r	.	4r	.	4r	.	1ryy
!	!	!	!	!	!	!	!	!	!	!	!	!	!	!	!	!	!	!LO:TX:a:t=Solo	!	!LO:TX:a:t=Solo	!	!LO:TX:a:t=Solo	!	!	!	!
4C#/	.	.	4e\	.	.	4r	.	4r	.	.	.	.	.	.	.	.	.	4A/	.	4c#/	.	4a/	.	4ee\|>	.	.
4C#/	.	.	4e\	.	.	4r	.	4r	.	.	.	.	.	.	.	.	.	4A/	.	4c#/	.	4a/	.	4ee\|>	.	.
4r	.	.	4r	.	.	(8f#/L	.	8ff#\L|>	.	.	.	.	.	.	.	.	.	4r	.	4r	.	4r	.	4r	.	.
.	.	.	.	.	.	8d/J)	.	8dd\J|>	.	.	.	.	.	.	.	.	.	.	.	.	.	.	.	.	.	.
!	!	!	!	!	!	!	!	!	!	!	!	!	!	!	!	!	!	!	!	!	!	!	!	!LO:LB:g=original	!	!
=57	=57	=57	=57	=57	=57	=57	=57	=57	=57	=57	=57	=57	=57	=57	=57	=57	=57	=57	=57	=57	=57	=57	=57	=57	=57	=57
4r	.	.	4r	.	1ryy	4B/	.	4b\	.	2r	.	.	1ryy	1ryy	1ryy	1ryy	1ryy	4r	.	4r	.	4r	.	4r	.	1ryy
4D\	.	.	4f#\ 4a\	.	.	4r	.	4r	.	.	.	.	.	.	.	.	.	4b\	.	4b\	.	4dd\	.	4ff#\|>	.	.
4D\	.	.	4f#\ 4a\	.	.	4r	.	4r	.	4r	.	.	.	.	.	.	.	4b\	.	4b\	.	4dd\	.	4ff#\|>	.	.
4D\	.	.	4d\	.	.	4dd\	.	4ff#\	.	4F#\	o-	.	.	.	.	.	.	4r	.	4r	.	4r	.	4r	.	.
!	!	!	!	!	!	!	!	!	!	!	!	!	!	!	!	!	!	!LO:LB:g=original	!	!	!	!	!	!	!	!
=58	=58	=58	=58	=58	=58	=58	=58	=58	=58	=58	=58	=58	=58	=58	=58	=58	=58	=58	=58	=58	=58	=58	=58	=58	=58	=58
4C#\	.	.	4c#\	.	1ryy	4cc#\	.	4ee\	.	8E\L	-ra	.	1ryy	1ryy	1ryy	1ryy	1ryy	2r	.	2r	.	00r	.	00r	.	1ryy
.	.	.	.	.	.	.	.	.	.	8A\J	.	.	.	.	.	.	.	.	.	.	.	.	.	.	.	.
!	!	!	!	!	!	!LO:TX:t=P:global:problem=klamra łukowa, kropka zamiast numeru	!	!LO:TX:t=P:global:problem=klamra łukowa, kropka zamiast numeru	!	!	!	!	!	!	!	!	!	!	!	!	!	!	!	!	!	!
4D\	.	.	4d\	.	.	12dd\L	.	12ff#\L	.	8F#\L	pro	.	.	.	.	.	.	.	.	.	.	.	.	.	.	.
.	.	.	.	.	.	12cc#\	.	12ee\	.	.	.	.	.	.	.	.	.	.	.	.	.	.	.	.	.	.
.	.	.	.	.	.	.	.	.	.	8d\J	.	.	.	.	.	.	.	.	.	.	.	.	.	.	.	.
.	.	.	.	.	.	12b\J	.	12dd\J	.	.	.	.	.	.	.	.	.	.	.	.	.	.	.	.	.	.
4E\	.	.	4e\	.	.	4a/	.	4cc#\	.	(4c#\	no-	.	.	.	.	.	.	4a\	.	4cc#\	.	.	.	.	.	.
4EE/	.	.	4e\	.	.	8g#X/L	.	4b\	.	4B\)	.	.	.	.	.	.	.	4e/	.	4b\	.	.	.	.	.	.
.	.	.	.	.	.	8e/J	.	.	.	.	.	.	.	.	.	.	.	.	.	.	.	.	.	.	.	.
!	!	!	!	!	!	!	!	!	!	!	!	!	!	!	!	!	!	!	!	!LO:LB:g=original	!	!	!	!	!	!
=59	=59	=59	=59	=59	=59	=59	=59	=59	=59	=59	=59	=59	=59	=59	=59	=59	=59	=59	=59	=59	=59	=59	=59	=59	=59	=59
(4AA/	.	.	4A/	.	1ryy	2c#/	.	2a\	.	2A\	-bis.	.	1ryy	1ryy	1ryy	1ryy	1ryy	2c#/	.	2a\	.	.	.	.	.	1ryy
8A\L	.	.	(8a\L	.	.	.	.	.	.	.	.	.	.	.	.	.	.	.	.	.	.	.	.	.	.	.
8B\J)	.	.	8b\J)	.	.	.	.	.	.	.	.	.	.	.	.	.	.	.	.	.	.	.	.	.	.	.
8A\L	.	.	(8a\L	.	.	2r	.	2r	.	2r	.	.	.	.	.	.	.	2r	.	2r	.	.	.	.	.	.
8Gn\	.	.	8gn\	.	.	.	.	.	.	.	.	.	.	.	.	.	.	.	.	.	.	.	.	.	.	.
8F#\	.	.	8f#\	.	.	.	.	.	.	.	.	.	.	.	.	.	.	.	.	.	.	.	.	.	.	.
8E\J	.	.	8e\J)	.	.	.	.	.	.	.	.	.	.	.	.	.	.	.	.	.	.	.	.	.	.	.
=60	=60	=60	=60	=60	=60	=60	=60	=60	=60	=60	=60	=60	=60	=60	=60	=60	=60	=60	=60	=60	=60	=60	=60	=60	=60	=60
!	!	!	!	!	!	!	!	!	!	!	!	!	!	!	!	!	!	!LO:TX:a:t=23	!	!LO:TX:a:t=23	!	!	!	!	!	!
2D\|>	.	f	2dd\|>	f	1ryy	2dd\	f	2dd\|>	f	2d\	Ma-	o	1ryy	1ryy	1ryy	1ryy	1ryy	1r	.	1r	.	.	.	.	.	1ryy
4A\|>	.	.	4a\|>	.	.	4a/	.	4a/|>	.	4A\	-ter	ta-	.	.	.	.	.	.	.	.	.	.	.	.	.	.
4F#\|>	.	.	4f#\|>	.	.	4f#/	.	4f#/|>	.	4F#\	a-	-ber-	.	.	.	.	.	.	.	.	.	.	.	.	.	.
!	!	!	!	!	!	!	!	!	!	!LO:LB:g=original	!	!	!	!	!	!	!	!	!	!	!	!	!	!	!	!
=61	=61	=61	=61	=61	=61	=61	=61	=61	=61	=61	=61	=61	=61	=61	=61	=61	=61	=61	=61	=61	=61	=61	=61	=61	=61	=61
4D\|>	.	.	4d\|>	.	1ryy	4d/|>	.	4d/|>	.	4D\	-ma-	-na-	1ryy	1ryy	1ryy	1ryy	1ryy	1r	.	1r	.	.	.	.	.	1ryy
4F#\|>	.	.	4f#\|>	.	.	4f#/|>	.	4f#/|>	.	4F#\	-bi-	.	.	.	.	.	.	.	.	.	.	.	.	.	.	.
!	!	!	!	!	!	!LO:LB:g=original	!	!	!	!	!	!	!	!	!	!	!	!	!	!	!	!	!	!	!	!
4A\|>	.	.	4a\|>	.	.	4a\|>	.	4a/|>	.	4A\	-lis	-cu-	.	.	.	.	.	.	.	.	.	.	.	.	.	.
4cn\|>	.	.	4ccn\|>	.	.	4ccn\|>	.	4ccn\|>	.	4cn\	o-	-lum	.	.	.	.	.	.	.	.	.	.	.	.	.	.
=62	=62	=62	=62	=62	=62	=62	=62	=62	=62	=62	=62	=62	=62	=62	=62	=62	=62	=62	=62	=62	=62	=62	=62	=62	=62	=62
!	!	!	!	!	!	!	!	!	!	!	!	!	!	!	!	!	!	!	!	!	!	!	!LO:DY:t=po.	!	!LO:DY:t=po.	!
4G\	5 3	p	4r	.	1ryy	4r	.	4r	.	(16B\LL	.	.	1ryy	1ryy	1ryy	1ryy	1ryy	1r	.	1r	.	1d/	p	1dd\	p	1ryy
!	!	!	!	!	!	!	!	!	!	!LO:SIC:v:o=16c#\	!	!	!	!	!	!	!	!	!	!	!	!	!	!	!	!
.	.	.	.	.	.	.	.	.	.	16cn	.	.	.	.	.	.	.	.	.	.	.	.	.	.	.	.
.	.	.	.	.	.	.	.	.	.	16B\	.	.	.	.	.	.	.	.	.	.	.	.	.	.	.	.
.	.	.	.	.	.	.	.	.	.	16A\JJ)	.	.	.	.	.	.	.	.	.	.	.	.	.	.	.	.
4r	.	.	4d\|>	p	.	4g/	p	4b\|>	p	4Gn\	.	.	.	.	.	.	.	.	.	.	.	.	.	.	.	.
4D\	7 5	.	4r	.	.	4r	.	4r	.	(16A\LL	.	.	.	.	.	.	.	.	.	.	.	.	.	.	.	.
.	.	.	.	.	.	.	.	.	.	16B\	.	.	.	.	.	.	.	.	.	.	.	.	.	.	.	.
.	.	.	.	.	.	.	.	.	.	16A\	.	.	.	.	.	.	.	.	.	.	.	.	.	.	.	.
.	.	.	.	.	.	.	.	.	.	16G\JJ)	.	.	.	.	.	.	.	.	.	.	.	.	.	.	.	.
4r	.	.	4d\|>	.	.	4a/	.	4ccn\|>	.	4F#\	.	.	.	.	.	.	.	.	.	.	.	.	.	.	.	.
!LO:LB:g=original	!	!	!	!	!	!	!	!	!	!	!	!	!	!	!	!	!	!	!	!	!	!	!	!	!	!
=63	=63	=63	=63	=63	=63	=63	=63	=63	=63	=63	=63	=63	=63	=63	=63	=63	=63	=63	=63	=63	=63	=63	=63	=63	=63	=63
4BB/	6 3	.	4r	.	1ryy	4r	.	4r	.	(16G\LL	.	.	1ryy	1ryy	1ryy	1ryy	1ryy	1r	.	1r	.	1d/	.	1dd\	.	1ryy
.	.	.	.	.	.	.	.	.	.	16F#\	.	.	.	.	.	.	.	.	.	.	.	.	.	.	.	.
.	.	.	.	.	.	.	.	.	.	16G\	.	.	.	.	.	.	.	.	.	.	.	.	.	.	.	.
.	.	.	.	.	.	.	.	.	.	16A\JJ)	.	.	.	.	.	.	.	.	.	.	.	.	.	.	.	.
4r	.	.	4d\|>	.	.	4g/|<	.	4b\|>	.	4B\	.	.	.	.	.	.	.	.	.	.	.	.	.	.	.	.
4F#\	5 3	.	4r	.	.	4r	.	4r	.	(16A\LL	.	.	.	.	.	.	.	.	.	.	.	.	.	.	.	.
.	.	.	.	.	.	.	.	.	.	16G\	.	.	.	.	.	.	.	.	.	.	.	.	.	.	.	.
.	.	.	.	.	.	.	.	.	.	16A\	.	.	.	.	.	.	.	.	.	.	.	.	.	.	.	.
.	.	.	.	.	.	.	.	.	.	16B\JJ)	.	.	.	.	.	.	.	.	.	.	.	.	.	.	.	.
4r	.	.	4d\|>	.	.	4f#/|<	.	4a\|>	.	4cn\	-ra	.	.	.	.	.	.	.	.	.	.	.	.	.	.	.
!	!	!	!LO:LB:g=original	!	!	!	!	!	!	!	!	!	!	!	!	!	!	!	!	!	!	!	!	!	!	!
=64	=64	=64	=64	=64	=64	=64	=64	=64	=64	=64	=64	=64	=64	=64	=64	=64	=64	=64	=64	=64	=64	=64	=64	=64	=64	=64
4G\	3	.	4r	.	1ryy	4r	.	4r	.	16B\LL	pro	.	1ryy	1ryy	1ryy	1ryy	1ryy	1r	.	1r	.	1d/	.	1dd\	.	1ryy
!	!	!	!	!	!	!	!	!	!	!LO:SIC:v:o=16c#\	!	!	!	!	!	!	!	!	!	!	!	!	!	!	!	!
.	.	.	.	.	.	.	.	.	.	16cn	.	.	.	.	.	.	.	.	.	.	.	.	.	.	.	.
.	.	.	.	.	.	.	.	.	.	16B\	.	.	.	.	.	.	.	.	.	.	.	.	.	.	.	.
.	.	.	.	.	.	.	.	.	.	16A\JJ	.	.	.	.	.	.	.	.	.	.	.	.	.	.	.	.
4r	.	.	4d\|>	.	.	4g/|<	.	4b\|>	.	8G\L	.	.	.	.	.	.	.	.	.	.	.	.	.	.	.	.
.	.	.	.	.	.	.	.	.	.	8B\J	.	.	.	.	.	.	.	.	.	.	.	.	.	.	.	.
!LO:SIC:v:o=4C#\	!	!	!	!	!	!	!	!	!	!	!	!	!	!	!	!	!	!	!	!	!	!	!	!	!	!
4Cn\	6	.	4r	.	.	4r	.	4r	.	16A\LL	no-	.	.	.	.	.	.	.	.	.	.	.	.	.	.	.
.	.	.	.	.	.	.	.	.	.	16B\	.	.	.	.	.	.	.	.	.	.	.	.	.	.	.	.
.	.	.	.	.	.	.	.	.	.	16A\	.	.	.	.	.	.	.	.	.	.	.	.	.	.	.	.
.	.	.	.	.	.	.	.	.	.	16G\JJ	.	.	.	.	.	.	.	.	.	.	.	.	.	.	.	.
4D\	3	.	4d\|>	.	.	4a/|<	.	4ccn\|>	.	8F#\L	.	.	.	.	.	.	.	.	.	.	.	.	.	.	.	.
.	.	.	.	.	.	.	.	.	.	8A\J	.	.	.	.	.	.	.	.	.	.	.	.	.	.	.	.
!	!	!	!	!	!	!	!	!	!	!LO:LB:g=original	!	!	!	!	!	!	!	!	!	!	!	!	!	!	!	!
=65	=65	=65	=65	=65	=65	=65	=65	=65	=65	=65	=65	=65	=65	=65	=65	=65	=65	=65	=65	=65	=65	=65	=65	=65	=65	=65
4G\	.	.	4d\	.	1ryy	4g/	f	4b\	.	4G\	-bis	.	1ryy	1ryy	1ryy	1ryy	1ryy	1r	.	1r	.	4d/	.	4dd\	f	1ryy
4GG/	.	f	4G/ 4d/	f	.	4G/ 4d/ 4b/	.	4d/ 4b/ 4gg/	f	4r	.	.	.	.	.	.	.	.	.	.	.	4b\	.	4gg\	.	.
4GG/	.	.	4G/ 4d/	.	.	4G/ 4d/ 4b/	.	4d/ 4b/ 4gg/	.	2r	.	.	.	.	.	.	.	.	.	.	.	4b\	.	4gg\	.	.
4r	.	.	4r	.	.	4r	.	4r	.	.	.	.	.	.	.	.	.	.	.	.	.	4r	.	4r	.	.
=66	=66	=66	=66	=66	=66	=66	=66	=66	=66	=66	=66	=66	=66	=66	=66	=66	=66	=66	=66	=66	=66	=66	=66	=66	=66	=66
2e\|>	.	.	2e\	.	1ryy	2ee\|>	.	2ee\|<	.	4.e\	Ma-	Sa-	1ryy	1ryy	1ryy	1ryy	1ryy	1r	.	1r	.	0r	.	0r	.	1ryy
.	.	.	.	.	.	.	.	.	.	8e\	-ter	-pie-	.	.	.	.	.	.	.	.	.	.	.	.	.	.
4B\|>	.	.	4b\	.	.	4b\|>	.	4b/|<	.	4B\	ad-	-en-	.	.	.	.	.	.	.	.	.	.	.	.	.	.
4G#X\|>	.	.	4g#X\	.	.	4g#X/|>	.	4g#X/|<	.	4G#X\	-mi-	.	.	.	.	.	.	.	.	.	.	.	.	.	.	.
!	!	!	!	!	!	!	!	!LO:LB:g=original	!	!	!	!	!	!	!	!	!	!	!	!	!	!	!	!	!	!
=67	=67	=67	=67	=67	=67	=67	=67	=67	=67	=67	=67	=67	=67	=67	=67	=67	=67	=67	=67	=67	=67	=67	=67	=67	=67	=67
4E\|>	.	.	4e\	.	1ryy	4e/|>	.	4e/|<	.	4E\	-ra-	.	1ryy	1ryy	1ryy	1ryy	1ryy	1r	.	1r	.	.	.	.	.	1ryy
4G#X\|>	.	.	4g#X\	.	.	4g#X/|>	.	4g#X/|<	.	4G#X\	-bi-	.	.	.	.	.	.	.	.	.	.	.	.	.	.	.
4B'\	.	.	4b\	.	.	4b/|>	.	4b/|<	.	4B\	-lis	-ti-	.	.	.	.	.	.	.	.	.	.	.	.	.	.
4d'\	.	.	4dd\	.	.	4dd\|>	.	4dd/|<	.	4d\	o-	-e	.	.	.	.	.	.	.	.	.	.	.	.	.	.
=68	=68	=68	=68	=68	=68	=68	=68	=68	=68	=68	=68	=68	=68	=68	=68	=68	=68	=68	=68	=68	=68	=68	=68	=68	=68	=68
!	!	!LO:DY:t=po.	!	!	!	!	!	!	!	!	!	!	!	!	!	!	!	!	!	!	!	!	!LO:DY:t=po.	!	!LO:DY:t=po.	!
4A\	5 3	p	4r	.	1ryy	4r	.	4r	.	16c#X\LL	.	.	1ryy	1ryy	1ryy	1ryy	1ryy	1r	.	1r	.	1e/	p	1ee\	p	1ryy
.	.	.	.	.	.	.	.	.	.	16d\	.	.	.	.	.	.	.	.	.	.	.	.	.	.	.	.
.	.	.	.	.	.	.	.	.	.	16c#\	.	.	.	.	.	.	.	.	.	.	.	.	.	.	.	.
.	.	.	.	.	.	.	.	.	.	16B\JJ	.	.	.	.	.	.	.	.	.	.	.	.	.	.	.	.
4r	.	.	4e\|>	p	.	4a/	p	4cc#X\|>	p	4A\	.	.	.	.	.	.	.	.	.	.	.	.	.	.	.	.
4E\	7 5	.	4r	.	.	4r	.	4r	.	16B\LL	.	.	.	.	.	.	.	.	.	.	.	.	.	.	.	.
.	.	.	.	.	.	.	.	.	.	16c#\	.	.	.	.	.	.	.	.	.	.	.	.	.	.	.	.
.	.	.	.	.	.	.	.	.	.	16B\	.	.	.	.	.	.	.	.	.	.	.	.	.	.	.	.
.	.	.	.	.	.	.	.	.	.	16A\JJ	.	.	.	.	.	.	.	.	.	.	.	.	.	.	.	.
4r	.	.	4e\|>	.	.	4g#X/	.	4dd\|>	.	4G#X\	.	.	.	.	.	.	.	.	.	.	.	.	.	.	.	.
=69	=69	=69	=69	=69	=69	=69	=69	=69	=69	=69	=69	=69	=69	=69	=69	=69	=69	=69	=69	=69	=69	=69	=69	=69	=69	=69
4C#X/	6	.	4r	.	1ryy	4r	.	4r	.	16A\LL	.	.	1ryy	1ryy	1ryy	1ryy	1ryy	1r	.	1r	.	1e/	.	1ee\	.	1ryy
!	!	!	!	!	!	!	!	!	!	!LO:SIC:v:o=16G\	!	!	!	!	!	!	!	!	!	!	!	!	!	!	!	!
.	.	.	.	.	.	.	.	.	.	16Gn\	.	.	.	.	.	.	.	.	.	.	.	.	.	.	.	.
.	.	.	.	.	.	.	.	.	.	16A\	.	.	.	.	.	.	.	.	.	.	.	.	.	.	.	.
.	.	.	.	.	.	.	.	.	.	16B\JJ	.	.	.	.	.	.	.	.	.	.	.	.	.	.	.	.
4r	.	.	4e\|>	.	.	4a/|<	.	4cc#\|>	.	4c#\	.	.	.	.	.	.	.	.	.	.	.	.	.	.	.	.
4E\	5 #	.	4r	.	.	4r	.	4r	.	16B\LL	.	.	.	.	.	.	.	.	.	.	.	.	.	.	.	.
.	.	.	.	.	.	.	.	.	.	16A\	.	.	.	.	.	.	.	.	.	.	.	.	.	.	.	.
.	.	.	.	.	.	.	.	.	.	16B\	.	.	.	.	.	.	.	.	.	.	.	.	.	.	.	.
.	.	.	.	.	.	.	.	.	.	16c#\JJ	.	.	.	.	.	.	.	.	.	.	.	.	.	.	.	.
4r	.	.	4e\|>	.	.	4g#X/|<	.	4b\|>	.	4d\	-ra	.	.	.	.	.	.	.	.	.	.	.	.	.	.	.
!	!	!	!	!	!	!	!	!	!	!LO:LB:g=original	!	!	!	!	!	!	!	!	!	!	!	!	!	!	!	!
=70	=70	=70	=70	=70	=70	=70	=70	=70	=70	=70	=70	=70	=70	=70	=70	=70	=70	=70	=70	=70	=70	=70	=70	=70	=70	=70
4A\	5	.	4r	.	1ryy	4r	.	4r	.	16c#\LL	pro	.	1ryy	1ryy	1ryy	1ryy	1ryy	1r	.	1r	.	1e/	.	1ee\	.	1ryy
.	.	.	.	.	.	.	.	.	.	16d\	.	.	.	.	.	.	.	.	.	.	.	.	.	.	.	.
.	.	.	.	.	.	.	.	.	.	16c#\	.	.	.	.	.	.	.	.	.	.	.	.	.	.	.	.
.	.	.	.	.	.	.	.	.	.	16B\JJ	.	.	.	.	.	.	.	.	.	.	.	.	.	.	.	.
4r	.	.	4e\|>	.	.	4a/	.	4cc#\|>	.	8A\L	.	.	.	.	.	.	.	.	.	.	.	.	.	.	.	.
.	.	.	.	.	.	.	.	.	.	8c#\J	.	.	.	.	.	.	.	.	.	.	.	.	.	.	.	.
4D\	6	.	4r	.	.	4r	.	4r	.	16B\LL	no-	.	.	.	.	.	.	.	.	.	.	.	.	.	.	.
.	.	.	.	.	.	.	.	.	.	16c#\	.	.	.	.	.	.	.	.	.	.	.	.	.	.	.	.
.	.	.	.	.	.	.	.	.	.	16B\	.	.	.	.	.	.	.	.	.	.	.	.	.	.	.	.
.	.	.	.	.	.	.	.	.	.	16A\JJ	.	.	.	.	.	.	.	.	.	.	.	.	.	.	.	.
4E\	#	.	4e\|>	.	.	4b/	.	4dd\|>	.	8G#X\L	.	.	.	.	.	.	.	.	.	.	.	.	.	.	.	.
.	.	.	.	.	.	.	.	.	.	8B\J	.	.	.	.	.	.	.	.	.	.	.	.	.	.	.	.
!LO:LB:g=original	!	!	!	!	!	!LO:LB:g=original	!	!	!	!	!	!	!	!	!	!	!	!	!	!	!	!	!	!	!	!
=71	=71	=71	=71	=71	=71	=71	=71	=71	=71	=71	=71	=71	=71	=71	=71	=71	=71	=71	=71	=71	=71	=71	=71	=71	=71	=71
4A\	.	.	4e\|>	f	1ryy	4a/	f	4cc#\	.	4A\	-bis	.	1ryy	1ryy	1ryy	1ryy	1ryy	1r	.	1r	.	4e/	.	4ee\	.	1ryy
4AA/	.	.	4e\|>	.	.	4A/ 4e/ 4cc#/	.	4e\ 4cc#\ 4aa\	f	4r	.	.	.	.	.	.	.	.	.	.	.	4cc#\	.	4aa\	f	.
4AA/	.	.	4e\|>	.	.	4A/ 4e/ 4cc#/	.	4e\ 4cc#\ 4aa\	.	2r	.	.	.	.	.	.	.	.	.	.	.	4cc#\	.	4aa\	.	.
4r	.	.	4r	.	.	4r	.	4r	.	.	.	.	.	.	.	.	.	.	.	.	.	4r	.	4r	.	.
=72	=72	=72	=72	=72	=72	=72	=72	=72	=72	=72	=72	=72	=72	=72	=72	=72	=72	=72	=72	=72	=72	=72	=72	=72	=72	=72
2A\|>	.	.	2a\|>	.	1ryy	2a/|<	.	2aa\|>	.	4.A\	Ma-	Me-	1ryy	1ryy	1ryy	1ryy	1ryy	1r	.	1r	.	0r	.	0r	.	1ryy
.	.	.	.	.	.	.	.	.	.	8A\	-ter	.	.	.	.	.	.	.	.	.	.	.	.	.	.	.
4E\|>	.	.	4e\|>	.	.	4e/|<	.	4ee\|>	.	4E\	Cre-	-dul-	.	.	.	.	.	.	.	.	.	.	.	.	.	.
4C#\|>	.	.	4c#\|>	.	.	4c#/|<	.	4cc#\|>	.	4C#/	-a-	-la	.	.	.	.	.	.	.	.	.	.	.	.	.	.
=73	=73	=73	=73	=73	=73	=73	=73	=73	=73	=73	=73	=73	=73	=73	=73	=73	=73	=73	=73	=73	=73	=73	=73	=73	=73	=73
4AA/|>	.	.	4A\|>	.	1ryy	4A/|<	.	4a\|>	.	4AA/	-to-	vir-	1ryy	1ryy	1ryy	1ryy	1ryy	1r	.	1r	.	.	.	.	.	1ryy
4C#/|>	.	.	4c#\|>	.	.	4c#/|<	.	4cc#\|>	.	4C#/	.	-tu-	.	.	.	.	.	.	.	.	.	.	.	.	.	.
4E\|>	.	.	4e\|>	.	.	4e/|<	.	4ee\|>	.	4E\	-ris	-tis	.	.	.	.	.	.	.	.	.	.	.	.	.	.
4Gn/|>	.	.	4gn\|>	.	.	4gn/|<	.	4ggn\|>	.	4Gn\	et	Me-	.	.	.	.	.	.	.	.	.	.	.	.	.	.
!	!	!	!LO:LB:g=original	!	!	!	!	!	!	!	!	!	!	!	!	!	!	!	!	!	!	!	!	!	!	!
=74	=74	=74	=74	=74	=74	=74	=74	=74	=74	=74	=74	=74	=74	=74	=74	=74	=74	=74	=74	=74	=74	=74	=74	=74	=74	=74
4F#\	5 3	p	2d\	p	1ryy	(2f#/	p	12a/L	.	4F#\	Sal-	-dul-	1ryy	1ryy	1ryy	1ryy	1ryy	1r	.	1r	.	2dd\	p	(2ff#\	p	1ryy
.	.	.	.	.	.	.	.	12a/	.	.	.	.	.	.	.	.	.	.	.	.	.	.	.	.	.	.
.	.	.	.	.	.	.	.	12a/J	.	.	.	.	.	.	.	.	.	.	.	.	.	.	.	.	.	.
4D\	.	.	.	.	.	.	.	8a/L	.	12d\L	.	.	.	.	.	.	.	.	.	.	.	.	.	.	.	.
.	.	.	.	.	.	.	.	.	.	12c#\	.	.	.	.	.	.	.	.	.	.	.	.	.	.	.	.
.	.	.	.	.	.	.	.	8a/J	.	.	.	.	.	.	.	.	.	.	.	.	.	.	.	.	.	.
.	.	.	.	.	.	.	.	.	.	12d\J	.	.	.	.	.	.	.	.	.	.	.	.	.	.	.	.
!	!	!	!	!	!	!	!	!LO:TX:t=P:problem=mixed beam	!	!	!	!	!	!	!	!	!	!	!	!	!	!	!	!	!	!
4C#/	.	.	(2e\	.	.	2g/	.	8A/L	.	8e\L	.	.	.	.	.	.	.	.	.	.	.	2ee\	.	2ggn\	.	.
.	.	.	.	.	.	.	.	8a\	.	8c#\	.	.	.	.	.	.	.	.	.	.	.	.	.	.	.	.
4AA/	.	.	.	.	.	.	.	8A/	.	8A\	.	.	.	.	.	.	.	.	.	.	.	.	.	.	.	.
.	.	.	.	.	.	.	.	8a\J	.	8G\J	.	.	.	.	.	.	.	.	.	.	.	.	.	.	.	.
!	!	!	!	!	!	!	!	!	!	!LO:LB:g=original	!	!	!	!	!	!	!	!	!	!	!	!	!	!	!	!
=75	=75	=75	=75	=75	=75	=75	=75	=75	=75	=75	=75	=75	=75	=75	=75	=75	=75	=75	=75	=75	=75	=75	=75	=75	=75	=75
4D\	.	.	2d\	.	1ryy	2f#/)	.	12a/L	.	8F#\L	.	.	1ryy	1ryy	1ryy	1ryy	1ryy	1r	.	1r	.	2dd\	.	2ff#\	.	1ryy
.	.	.	.	.	.	.	.	12a/	.	.	.	.	.	.	.	.	.	.	.	.	.	.	.	.	.	.
.	.	.	.	.	.	.	.	.	.	8D\J	.	.	.	.	.	.	.	.	.	.	.	.	.	.	.	.
.	.	.	.	.	.	.	.	12a/J	.	.	.	.	.	.	.	.	.	.	.	.	.	.	.	.	.	.
.	.	.	.	.	.	.	.	.	.	8qE/	.	.	.	.	.	.	.	.	.	.	.	.	.	.	.	.
4F#\	.	.	.	.	.	.	.	8a/L	.	12D\L	.	.	.	.	.	.	.	.	.	.	.	.	.	.	.	.
.	.	.	.	.	.	.	.	.	.	12C#\	.	.	.	.	.	.	.	.	.	.	.	.	.	.	.	.
.	.	.	.	.	.	.	.	8a/J	.	.	.	.	.	.	.	.	.	.	.	.	.	.	.	.	.	.
.	.	.	.	.	.	.	.	.	.	12D\J	.	.	.	.	.	.	.	.	.	.	.	.	.	.	.	.
!	!	!	!	!	!	!	!	!LO:TX:t=P:problem=mixed beam	!	!	!	!	!	!	!	!	!	!	!	!	!	!	!	!	!	!
4A\	.	.	2c#\)	.	.	2e/	.	8A/L	.	8E\L	.	.	.	.	.	.	.	.	.	.	.	2cc#\	.	2ee\)	.	.
.	.	.	.	.	.	.	.	8a\	.	8C#\J	.	.	.	.	.	.	.	.	.	.	.	.	.	.	.	.
!	!	!	!	!	!	!	!	!	!	!LO:TX:t=P:problem=mixed beam	!	!	!	!	!	!	!	!	!	!	!	!	!	!	!	!
4G\	.	.	.	.	.	.	.	8A/	.	8AA/L	.	.	.	.	.	.	.	.	.	.	.	.	.	.	.	.
.	.	.	.	.	.	.	.	8a\J	.	8G\J	.	.	.	.	.	.	.	.	.	.	.	.	.	.	.	.
!	!	!	!	!	!	!	!	!LO:LB:g=original	!	!	!	!	!	!	!	!	!	!	!	!	!	!	!	!	!	!
=76	=76	=76	=76	=76	=76	=76	=76	=76	=76	=76	=76	=76	=76	=76	=76	=76	=76	=76	=76	=76	=76	=76	=76	=76	=76	=76
4F#\	.	.	2d\	.	1ryy	2f#/	.	12a/L	.	8F#\L	.	.	1ryy	1ryy	1ryy	1ryy	1ryy	1r	.	1r	.	2dd\	.	(2ff#\	.	1ryy
.	.	.	.	.	.	.	.	12a/	.	.	.	.	.	.	.	.	.	.	.	.	.	.	.	.	.	.
.	.	.	.	.	.	.	.	.	.	8d\J	.	.	.	.	.	.	.	.	.	.	.	.	.	.	.	.
.	.	.	.	.	.	.	.	12a/J	.	.	.	.	.	.	.	.	.	.	.	.	.	.	.	.	.	.
4D\	.	.	.	.	.	.	.	8a/L	.	12d\L	.	.	.	.	.	.	.	.	.	.	.	.	.	.	.	.
.	.	.	.	.	.	.	.	.	.	12c#\	.	.	.	.	.	.	.	.	.	.	.	.	.	.	.	.
.	.	.	.	.	.	.	.	8a/J	.	.	.	.	.	.	.	.	.	.	.	.	.	.	.	.	.	.
.	.	.	.	.	.	.	.	.	.	12d\J	.	.	.	.	.	.	.	.	.	.	.	.	.	.	.	.
!	!	!	!	!	!	!	!	!LO:TX:t=P:problem=mixed beam	!	!	!	!	!	!	!	!	!	!	!	!	!	!	!	!	!	!
4C#/	.	.	(2e\	.	.	(2g/	.	8A/L	.	8e\L	.	.	.	.	.	.	.	.	.	.	.	2ee\	.	2gg\	.	.
.	.	.	.	.	.	.	.	8a\	.	8c#\J	.	.	.	.	.	.	.	.	.	.	.	.	.	.	.	.
4AA/	.	.	.	.	.	.	.	8A/	.	8A\L	.	.	.	.	.	.	.	.	.	.	.	.	.	.	.	.
.	.	.	.	.	.	.	.	8a\J	.	8G\J	.	.	.	.	.	.	.	.	.	.	.	.	.	.	.	.
!	!	!	!	!	!	!	!	!	!	!	!	!	!	!	!	!	!	!	!	!	!	!LO:LB:g=original	!	!	!	!
=77	=77	=77	=77	=77	=77	=77	=77	=77	=77	=77	=77	=77	=77	=77	=77	=77	=77	=77	=77	=77	=77	=77	=77	=77	=77	=77
4D\	.	.	2d\	.	1ryy	2f#/	.	12a/L	.	8F#\L	.	.	1ryy	1ryy	1ryy	1ryy	1ryy	1r	.	1r	.	2dd\	.	2ff#\	.	1ryy
.	.	.	.	.	.	.	.	12a/	.	.	.	.	.	.	.	.	.	.	.	.	.	.	.	.	.	.
.	.	.	.	.	.	.	.	.	.	8D\J	.	.	.	.	.	.	.	.	.	.	.	.	.	.	.	.
.	.	.	.	.	.	.	.	12a/J	.	.	.	.	.	.	.	.	.	.	.	.	.	.	.	.	.	.
4F#\	.	.	.	.	.	.	.	8a/L	.	12D\L	.	.	.	.	.	.	.	.	.	.	.	.	.	.	.	.
.	.	.	.	.	.	.	.	.	.	12C#\	.	.	.	.	.	.	.	.	.	.	.	.	.	.	.	.
.	.	.	.	.	.	.	.	8a/J	.	.	.	.	.	.	.	.	.	.	.	.	.	.	.	.	.	.
.	.	.	.	.	.	.	.	.	.	12D\J	.	.	.	.	.	.	.	.	.	.	.	.	.	.	.	.
!	!	!	!	!	!	!	!	!LO:TX:t=P:problem=mixed beam	!	!	!	!	!	!	!	!	!	!	!	!	!	!	!	!	!	!
4A\	.	.	2c#\)	.	.	2e/)	.	8A/L	.	8E\L	.	la	.	.	.	.	.	.	.	.	.	2cc#\	.	2ee\)	.	.
.	.	.	.	.	.	.	.	8a\	.	8C#\J	.	.	.	.	.	.	.	.	.	.	.	.	.	.	.	.
!	!	!	!	!	!	!	!	!	!	!LO:TX:t=P:problem=mixed beam	!	!	!	!	!	!	!	!	!	!	!	!	!	!	!	!
4G\	.	.	.	.	.	.	.	8A/	.	8AA/L	-va-	vir-	.	.	.	.	.	.	.	.	.	.	.	.	.	.
.	.	.	.	.	.	.	.	8a\J	.	8G\J	.	.	.	.	.	.	.	.	.	.	.	.	.	.	.	.
=78	=78	=78	=78	=78	=78	=78	=78	=78	=78	=78	=78	=78	=78	=78	=78	=78	=78	=78	=78	=78	=78	=78	=78	=78	=78	=78
2F#\	.	.	1d\ 1a\	.	1ryy	2d/	.	4f#/	.	4F#\	-to-	-tu-	1ryy	1ryy	1ryy	1ryy	1ryy	1r	.	1r	.	4dd\	.	4dd\	.	1ryy
.	.	.	.	.	.	.	.	2dd\	.	2d\	-ris	-tis.	.	.	.	.	.	.	.	.	.	4r	.	4r	.	.
2D\	.	.	.	.	.	2f#/	.	.	.	.	.	.	.	.	.	.	.	.	.	.	.	2r	.	2r	.	.
.	.	.	.	.	.	.	.	4a/	.	4A\	o-	.	.	.	.	.	.	.	.	.	.	.	.	.	.	.
!	!	!	!	!	!	!	!	!	!	!	!	!	!	!	!	!	!	!	!	!	!	!	!	!LO:LB:g=original	!	!
=79	=79	=79	=79	=79	=79	=79	=79	=79	=79	=79	=79	=79	=79	=79	=79	=79	=79	=79	=79	=79	=79	=79	=79	=79	=79	=79
4r	.	.	4r	.	1ryy	4r	.	8b\	.	8B\	.	.	1ryy	1ryy	1ryy	1ryy	1ryy	1r	.	1r	.	4r	.	4r	.	1ryy
.	.	.	.	.	.	.	.	4G/	.	4GG/	.	.	.	.	.	.	.	.	.	.	.	.	.	.	.	.
4GG/	.	.	4d\|>	.	.	4b\|>	.	.	.	.	.	.	.	.	.	.	.	.	.	.	.	4g/|<	.	4b\|>	.	.
.	.	.	.	.	.	.	.	8b\	.	8B\	.	.	.	.	.	.	.	.	.	.	.	.	.	.	.	.
4r	.	.	4r	.	.	4r	.	8cc#\	.	8c#\	.	.	.	.	.	.	.	.	.	.	.	4r	.	4r	.	.
.	.	.	.	.	.	.	.	4A/	.	4AA/	.	.	.	.	.	.	.	.	.	.	.	.	.	.	.	.
4AA/	.	.	4e\|>	.	.	4cc#\|>	.	.	.	.	.	.	.	.	.	.	.	.	.	.	.	4a/|<	.	4cc#\|>	.	.
.	.	.	.	.	.	.	.	8cc#\	.	8c#\	.	.	.	.	.	.	.	.	.	.	.	.	.	.	.	.
!	!	!	!	!	!	!	!	!	!	!LO:LB:g=original	!	!	!	!	!	!	!	!	!	!	!	!	!	!	!	!
=80	=80	=80	=80	=80	=80	=80	=80	=80	=80	=80	=80	=80	=80	=80	=80	=80	=80	=80	=80	=80	=80	=80	=80	=80	=80	=80
4r	.	.	4r	.	1ryy	4r	.	8dd\	.	8d\	.	.	1ryy	1ryy	1ryy	1ryy	1ryy	1r	.	1r	.	4r	.	4r	.	1ryy
.	.	.	.	.	.	.	.	4B/	.	4D\	.	.	.	.	.	.	.	.	.	.	.	.	.	.	.	.
4BB/	.	.	4f#\|>	.	.	4dd\|>	.	.	.	.	.	.	.	.	.	.	.	.	.	.	.	4b\|>	.	4dd\|>	.	.
.	.	.	.	.	.	.	.	8dd\	.	8d\	.	.	.	.	.	.	.	.	.	.	.	.	.	.	.	.
!LO:LB:g=original	!	!	!	!	!	!	!	!	!	!	!	!	!	!	!	!	!	!	!	!	!	!	!	!	!	!
4r	.	.	4r	.	.	4r	.	8ee\	.	8e\	.	.	.	.	.	.	.	.	.	.	.	4r	.	4r	.	.
.	.	.	.	.	.	.	.	4c#/	.	4C#/	.	.	.	.	.	.	.	.	.	.	.	.	.	.	.	.
4C#/	.	.	4g\|>	.	.	4ee\|>	.	.	.	.	.	.	.	.	.	.	.	.	.	.	.	4cc#\|>	.	4ee\|>	.	.
.	.	.	.	.	.	.	.	8ee\	.	8e\	.	.	.	.	.	.	.	.	.	.	.	.	.	.	.	.
=81	=81	=81	=81	=81	=81	=81	=81	=81	=81	=81	=81	=81	=81	=81	=81	=81	=81	=81	=81	=81	=81	=81	=81	=81	=81	=81
4D\	.	.	4a\	.	1ryy	(8dd/L	.	8ff#\L	.	8f#\L	-ra	.	1ryy	1ryy	1ryy	1ryy	1ryy	1r	.	1r	.	2r	.	2r	.	1ryy
.	.	.	.	.	.	8f#/J)	.	8dd\	.	8d\J	.	.	.	.	.	.	.	.	.	.	.	.	.	.	.	.
4G\	.	.	4b\	.	.	(8g/L	.	8b\	.	8B\L	pro	.	.	.	.	.	.	.	.	.	.	.	.	.	.	.
.	.	.	.	.	.	8e/J)	.	8g\J	.	8G\J	.	.	.	.	.	.	.	.	.	.	.	.	.	.	.	.
4A\	.	.	4a\	.	.	4d/	.	(4f#/	.	4F#\	no-	.	.	.	.	.	.	.	.	.	.	4f#/|<	.	4dd\	.	.
4AA/	.	.	4a\	.	.	4c#/	.	4e/)	.	4E\	.	.	.	.	.	.	.	.	.	.	.	4g/|<	.	4cc#\	.	.
!	!	!	!	!	!	!LO:LB:g=original	!	!	!	!	!	!	!	!	!	!	!	!	!	!	!	!	!	!	!	!
=82	=82	=82	=82	=82	=82	=82	=82	=82	=82	=82	=82	=82	=82	=82	=82	=82	=82	=82	=82	=82	=82	=82	=82	=82	=82	=82
4.D\	.	.	2f#\	.	1ryy	2d/ 2a/	.	2d/	.	2D\	-bis.	.	1ryy	1ryy	1ryy	1ryy	1ryy	1r	.	1r	.	4f#/	.	4dd\	.	1ryy
.	.	.	.	.	.	.	.	.	.	.	.	.	.	.	.	.	.	.	.	.	.	4r	.	4r	.	.
8A\|>	.	.	.	.	.	.	.	.	.	.	.	.	.	.	.	.	.	.	.	.	.	.	.	.	.	.
(8G\L	.	.	8g\L	.	.	2r	.	2r	.	2r	.	.	.	.	.	.	.	.	.	.	.	2r	.	2r	.	.
8F#\	.	.	8f#\	.	.	.	.	.	.	.	.	.	.	.	.	.	.	.	.	.	.	.	.	.	.	.
8E\	.	.	8e\	.	.	.	.	.	.	.	.	.	.	.	.	.	.	.	.	.	.	.	.	.	.	.
8D\J)	.	.	8d\J	.	.	.	.	.	.	.	.	.	.	.	.	.	.	.	.	.	.	.	.	.	.	.
=83	=83	=83	=83	=83	=83	=83	=83	=83	=83	=83	=83	=83	=83	=83	=83	=83	=83	=83	=83	=83	=83	=83	=83	=83	=83	=83
!	!	!	!	!	!	!	!	!	!	!	!	!	!	!	!	!	!	!LO:TX:a:t=Solo	!	!LO:TX:a:t=Solo	!	!	!	!	!	!
4C#/|>	.	.	4c#/|>	.	1ryy	1A/ 1a/	.	8a/	.	8A\	O-	.	1ryy	1ryy	1ryy	1ryy	1ryy	1A/	.	1a/	.	00r	.	00r	.	1ryy
.	.	.	.	.	.	.	.	4g/	.	4G\	.	.	.	.	.	.	.	.	.	.	.	.	.	.	.	.
4AA/|>	.	.	4A/|>	.	.	.	.	.	.	.	.	.	.	.	.	.	.	.	.	.	.	.	.	.	.	.
.	.	.	.	.	.	.	.	8e/	.	8E\	.	.	.	.	.	.	.	.	.	.	.	.	.	.	.	.
4D\|>	.	.	4d\|>	.	.	.	.	8g/	.	8G\	.	.	.	.	.	.	.	.	.	.	.	.	.	.	.	.
.	.	.	.	.	.	.	.	4f#/	.	4F#\	.	.	.	.	.	.	.	.	.	.	.	.	.	.	.	.
4F#\|>	.	.	4f#\|>	.	.	.	.	.	.	.	.	.	.	.	.	.	.	.	.	.	.	.	.	.	.	.
.	.	.	.	.	.	.	.	[8d/	.	[8D\	.	.	.	.	.	.	.	.	.	.	.	.	.	.	.	.
!	!	!	!	!	!	!	!	!LO:LB:g=original	!	!	!	!	!	!	!	!	!	!	!	!	!	!	!	!	!	!
=84	=84	=84	=84	=84	=84	=84	=84	=84	=84	=84	=84	=84	=84	=84	=84	=84	=84	=84	=84	=84	=84	=84	=84	=84	=84	=84
4A\|>	.	.	4a\|>	.	1ryy	1A/ 1a/	.	8d/]	.	8D\]	.	.	1ryy	1ryy	1ryy	1ryy	1ryy	1A/	.	1a/	.	.	.	.	.	1ryy
.	.	.	.	.	.	.	.	4c#/	.	4C#/	.	.	.	.	.	.	.	.	.	.	.	.	.	.	.	.
4G\|>	.	.	4g\|>	.	.	.	.	.	.	.	.	.	.	.	.	.	.	.	.	.	.	.	.	.	.	.
.	.	.	.	.	.	.	.	(8e/	.	8E\	.	.	.	.	.	.	.	.	.	.	.	.	.	.	.	.
!	!	!	!	!	!	!	!	!LO:TX:t=P:problem=mixed beam	!	!	!	!	!	!	!	!	!	!	!	!	!	!	!	!	!	!
4F#\|>	.	.	4f#\|>	.	.	.	.	8d/L	.	8D\L	.	.	.	.	.	.	.	.	.	.	.	.	.	.	.	.
.	.	.	.	.	.	.	.	8dd\	.	8d\J	.	.	.	.	.	.	.	.	.	.	.	.	.	.	.	.
4D\|>	.	.	4d\|>	.	.	.	.	8a\	.	8A\L	-ra	.	.	.	.	.	.	.	.	.	.	.	.	.	.	.
.	.	.	.	.	.	.	.	8f#\J)	.	8F#\J	.	.	.	.	.	.	.	.	.	.	.	.	.	.	.	.
!	!	!	!LO:LB:g=original	!	!	!	!	!	!	!LO:LB:g=original	!	!	!	!	!	!	!	!	!	!	!	!	!	!	!	!
=85	=85	=85	=85	=85	=85	=85	=85	=85	=85	=85	=85	=85	=85	=85	=85	=85	=85	=85	=85	=85	=85	=85	=85	=85	=85	=85
4C#/|>	.	.	4c#\|>	.	1ryy	1A/ 1a/	.	8a/	.	8A\	o-	.	1ryy	1ryy	1ryy	1ryy	1ryy	1A/	.	1a/	.	.	.	.	.	1ryy
.	.	.	.	.	.	.	.	4g/	.	4G\	.	.	.	.	.	.	.	.	.	.	.	.	.	.	.	.
4AA/|>	.	.	4A\|>	.	.	.	.	.	.	.	.	.	.	.	.	.	.	.	.	.	.	.	.	.	.	.
.	.	.	.	.	.	.	.	8e/	.	8E\	.	.	.	.	.	.	.	.	.	.	.	.	.	.	.	.
4D\|>	.	.	4d\|>	.	.	.	.	8g/	.	8G\	.	.	.	.	.	.	.	.	.	.	.	.	.	.	.	.
.	.	.	.	.	.	.	.	4f#/	.	4F#\	.	.	.	.	.	.	.	.	.	.	.	.	.	.	.	.
4F#\|>	.	.	4f#\|>	.	.	.	.	.	.	.	.	.	.	.	.	.	.	.	.	.	.	.	.	.	.	.
.	.	.	.	.	.	.	.	[8d/	.	[8D\	.	.	.	.	.	.	.	.	.	.	.	.	.	.	.	.
=86	=86	=86	=86	=86	=86	=86	=86	=86	=86	=86	=86	=86	=86	=86	=86	=86	=86	=86	=86	=86	=86	=86	=86	=86	=86	=86
4A\|>	.	.	4a\|>	.	1ryy	1A/ 1a/	.	8d/]	.	8D\]	.	.	1ryy	1ryy	1ryy	1ryy	1ryy	1A/	.	1a/	.	.	.	.	.	1ryy
.	.	.	.	.	.	.	.	4c#/	.	4C#\	.	.	.	.	.	.	.	.	.	.	.	.	.	.	.	.
4G\|>	.	.	4g\|>	.	.	.	.	.	.	.	.	.	.	.	.	.	.	.	.	.	.	.	.	.	.	.
.	.	.	.	.	.	.	.	8e/	.	8E\	.	.	.	.	.	.	.	.	.	.	.	.	.	.	.	.
4F#\|>	.	.	4f#\|>	.	.	.	.	(8d/L	.	8D\L	.	.	.	.	.	.	.	.	.	.	.	.	.	.	.	.
.	.	.	.	.	.	.	.	8f#/	.	8F#\J	.	.	.	.	.	.	.	.	.	.	.	.	.	.	.	.
4D\|>	.	.	4d\|>	.	.	.	.	8a/	.	8A\L	.	.	.	.	.	.	.	.	.	.	.	.	.	.	.	.
.	.	.	.	.	.	.	.	8f#/J)	.	8F#\J	.	.	.	.	.	.	.	.	.	.	.	.	.	.	.	.
=87	=87	=87	=87	=87	=87	=87	=87	=87	=87	=87	=87	=87	=87	=87	=87	=87	=87	=87	=87	=87	=87	=87	=87	=87	=87	=87
4C#/|>	.	.	4c#\|>	.	1ryy	1A/ 1a/	.	(8a/	.	8A\	.	.	1ryy	1ryy	1ryy	1ryy	1ryy	1A/	.	1a/	.	0r	.	0r	.	1ryy
.	.	.	.	.	.	.	.	4g/	.	4G\	.	.	.	.	.	.	.	.	.	.	.	.	.	.	.	.
4AA/|>	.	.	4A/|>	.	.	.	.	.	.	.	.	.	.	.	.	.	.	.	.	.	.	.	.	.	.	.
.	.	.	.	.	.	.	.	8e/)	.	8E\	.	.	.	.	.	.	.	.	.	.	.	.	.	.	.	.
4D\|>	.	.	4d\|>	.	.	.	.	8g/	.	8G\	.	.	.	.	.	.	.	.	.	.	.	.	.	.	.	.
.	.	.	.	.	.	.	.	4f#/	.	4F#\	.	.	.	.	.	.	.	.	.	.	.	.	.	.	.	.
4F#\|>	.	.	4f#\|>	.	.	.	.	.	.	.	.	.	.	.	.	.	.	.	.	.	.	.	.	.	.	.
.	.	.	.	.	.	.	.	8d/	.	8D\	.	.	.	.	.	.	.	.	.	.	.	.	.	.	.	.
=88	=88	=88	=88	=88	=88	=88	=88	=88	=88	=88	=88	=88	=88	=88	=88	=88	=88	=88	=88	=88	=88	=88	=88	=88	=88	=88
4C#/|>	.	.	4c#\|>	.	1ryy	1A/ 1a/	.	8a/	.	8A\	.	.	1ryy	1ryy	1ryy	1ryy	1ryy	1A/	.	1a/	.	.	.	.	.	1ryy
.	.	.	.	.	.	.	.	4g/	.	4G\	.	.	.	.	.	.	.	.	.	.	.	.	.	.	.	.
4AA/|>	.	.	4A\|>	.	.	.	.	.	.	.	.	.	.	.	.	.	.	.	.	.	.	.	.	.	.	.
.	.	.	.	.	.	.	.	8e/	.	8E\	.	.	.	.	.	.	.	.	.	.	.	.	.	.	.	.
4D\|>	.	.	4d\|>	.	.	.	.	8g/	.	8G\	.	.	.	.	.	.	.	.	.	.	.	.	.	.	.	.
.	.	.	.	.	.	.	.	4f#/	.	4F#\	.	.	.	.	.	.	.	.	.	.	.	.	.	.	.	.
4F#\|>	.	.	4f#\|>	.	.	.	.	.	.	.	.	.	.	.	.	.	.	.	.	.	.	.	.	.	.	.
.	.	.	.	.	.	.	.	8d/	.	8D\	.	.	.	.	.	.	.	.	.	.	.	.	.	.	.	.
=89	=89	=89	=89	=89	=89	=89	=89	=89	=89	=89	=89	=89	=89	=89	=89	=89	=89	=89	=89	=89	=89	=89	=89	=89	=89	=89
!	!	!	!	!	!	!	!	!	!	!	!	!	!	!	!	!	!	!	!	!LO:TX:a:t=15	!	!	!	!	!	!
4G\	.	.	4r	.	1ryy	4r	.	(8b/L	.	8B\L	.	.	1ryy	1ryy	1ryy	1ryy	1ryy	00r	.	1r	.	4r	.	4r	.	1ryy
.	.	.	.	.	.	.	.	8g/J)	.	8G\J	.	.	.	.	.	.	.	.	.	.	.	.	.	.	.	.
!	!	!	!	!	!	!	!	!LO:TX:t=P:problem=mixed beam	!	!LO:TX:t=P:problem=mixed beam	!	!	!	!	!	!	!	!	!	!	!	!	!	!	!	!
4r	.	.	4g\|>	.	.	4b\|>	.	8G/L	.	8GG/L	.	.	.	.	.	.	.	.	.	.	.	4g/	.	4b\|>	.	.
.	.	.	.	.	.	.	.	8b\J	.	8B\J	.	.	.	.	.	.	.	.	.	.	.	.	.	.	.	.
4E\	.	.	4r	.	.	4r	.	8cc#/L	.	8c#\L	.	.	.	.	.	.	.	.	.	.	.	4r	.	4r	.	.
.	.	.	.	.	.	.	.	8a/J	.	8A\J	.	.	.	.	.	.	.	.	.	.	.	.	.	.	.	.
!	!	!	!	!	!	!	!	!LO:TX:t=P:problem=mixed beam	!	!LO:TX:t=P:problem=mixed beam	!	!	!	!	!	!	!	!	!	!	!	!	!	!	!	!
4r	.	.	4e\|>	.	.	4cc#\|>	.	8A/L	.	8AA/L	.	.	.	.	.	.	.	.	.	.	.	4e/	.	4cc#\|>	.	.
.	.	.	.	.	.	.	.	8cc#\J	.	8c#\J	.	.	.	.	.	.	.	.	.	.	.	.	.	.	.	.
!LO:LB:g=original	!	!	!	!	!	!	!	!	!	!LO:LB:g=original	!	!	!	!	!	!	!	!	!	!	!	!	!	!	!	!
=90	=90	=90	=90	=90	=90	=90	=90	=90	=90	=90	=90	=90	=90	=90	=90	=90	=90	=90	=90	=90	=90	=90	=90	=90	=90	=90
4F#\	.	.	4f#\	.	1ryy	8dd\L	.	8dd\L	.	8d\L	-ra	.	1ryy	1ryy	1ryy	1ryy	1ryy	.	.	1r	.	4f#/	.	4dd\	.	1ryy
.	.	.	.	.	.	8f#\J	.	8a\J	.	8A\J	.	.	.	.	.	.	.	.	.	.	.	.	.	.	.	.
4G\	.	.	4g\	.	.	12g/L	.	12b\L	.	12B\L	pro	.	.	.	.	.	.	.	.	.	.	4r	.	4r	.	.
.	.	.	.	.	.	12f#/	.	12a\	.	12A\	.	.	.	.	.	.	.	.	.	.	.	.	.	.	.	.
.	.	.	.	.	.	12e/J	.	12g\J	.	12G\J	.	.	.	.	.	.	.	.	.	.	.	.	.	.	.	.
4A\	4	.	4a\	.	.	4d/	.	4f#/	.	(4F#\	no-	.	.	.	.	.	.	.	.	.	.	2r	.	2r	.	.
4AA/	3	.	4a\	.	.	4c#/	.	4e/	.	4E\	.	.	.	.	.	.	.	.	.	.	.	.	.	.	.	.
!	!	!	!	!	!	!	!	!LO:LB:g=original	!	!	!	!	!	!	!	!	!	!	!	!	!	!	!	!	!	!
=91	=91	=91	=91	=91	=91	=91	=91	=91	=91	=91	=91	=91	=91	=91	=91	=91	=91	=91	=91	=91	=91	=91	=91	=91	=91	=91
!	!	!	!	!	!	!	!	!	!	!	!	!	!	!	!	!	!	!	!	!	!	!	!	!LO:TX:a:rj:t=Solo	!	!
4D/	.	.	2a\	.	1ryy	2c#/	.	(2e/	.	2ET\)	.	.	1ryy	1ryy	1ryy	1ryy	1ryy	.	.	1r	.	2r	.	2r	.	1ryy
4AA/	.	.	.	.	.	.	.	.	.	.	.	.	.	.	.	.	.	.	.	.	.	.	.	.	.	.
4DD/	.	.	4a\	.	.	4d/	.	4d/)	.	4D\	-bis	.	.	.	.	.	.	.	.	.	.	4r	.	4r	.	.
!	!	!	!	!	!	!	!	!	!	!	!	!	!	!	!	!	!	!	!	!	!	!LO:TX:a:t=Solo	!	!	!	!
4r	.	.	4r	.	.	8f#/L	p	8a/L	p	4r	.	.	.	.	.	.	.	.	.	.	.	8ff#\L	.	(8aa\L	.	.
.	.	.	.	.	.	8e/J	.	8g/J	.	.	.	.	.	.	.	.	.	.	.	.	.	8ee\J	.	8gg\J)	.	.
=92	=92	=92	=92	=92	=92	=92	=92	=92	=92	=92	=92	=92	=92	=92	=92	=92	=92	=92	=92	=92	=92	=92	=92	=92	=92	=92
4r	.	.	4r	.	1ryy	4d'/	.	4f#'/	.	00r	.	.	1ryy	1ryy	1ryy	1ryy	1ryy	.	.	1r	.	4dd\|>	.	4ff#\|>	.	1ryy
4D\	.	.	4d\	.	.	4d'/	.	4f#'/	.	.	.	.	.	.	.	.	.	.	.	.	.	4dd\|>	.	4ff#\|>	.	.
4F#\	.	.	4f#\	.	.	4d'/	.	4f#'/	.	.	.	.	.	.	.	.	.	.	.	.	.	4dd\|>	.	4ff#\|>	.	.
4G\	.	.	4g\	.	.	4e'/	.	4g'/	.	.	.	.	.	.	.	.	.	.	.	.	.	4ee\|>	.	4gg\|>	.	.
=93	=93	=93	=93	=93	=93	=93	=93	=93	=93	=93	=93	=93	=93	=93	=93	=93	=93	=93	=93	=93	=93	=93	=93	=93	=93	=93
2A\	4	.	2a\	.	1ryy	(2d/	.	(2f#/	.	.	.	.	1ryy	1ryy	1ryy	1ryy	1ryy	00r	.	1r	.	2dd\	.	(2ff#\	.	1ryy
4AA/	3	.	4A/	.	.	4c#/)	.	4e/)	.	.	.	.	.	.	.	.	.	.	.	.	.	4cc#\	.	4ee\)	.	.
4r	.	.	4r	.	.	4r	.	4A/|<	.	.	.	.	.	.	.	.	.	.	.	.	.	4r	.	4a\|>	.	.
!	!	!	!	!	!	!LO:LB:g=original	!	!	!	!	!	!	!	!	!	!	!	!	!	!	!	!LO:LB:g=original	!	!	!	!
=94	=94	=94	=94	=94	=94	=94	=94	=94	=94	=94	=94	=94	=94	=94	=94	=94	=94	=94	=94	=94	=94	=94	=94	=94	=94	=94
2D\	.	.	2d\	.	1ryy	4d'/	.	4d'/	.	.	.	.	1ryy	1ryy	1ryy	1ryy	1ryy	.	.	1r	.	4f#/	.	4dd\|>	.	1ryy
.	.	.	.	.	.	4d'/	.	4d'/	.	.	.	.	.	.	.	.	.	.	.	.	.	4f#/	.	4dd\|>	.	.
2AA/	.	.	2A/	.	.	4c#'/	.	4e'/	.	.	.	.	.	.	.	.	.	.	.	.	.	4a/	.	4ee\|>	.	.
.	.	.	.	.	.	4c#'/	.	4e'/	.	.	.	.	.	.	.	.	.	.	.	.	.	4a/	.	4ee\|>	.	.
=95	=95	=95	=95	=95	=95	=95	=95	=95	=95	=95	=95	=95	=95	=95	=95	=95	=95	=95	=95	=95	=95	=95	=95	=95	=95	=95
4D/	.	.	4d/	.	1ryy	(8d/L	.	(8f#/L	.	.	.	.	1ryy	1ryy	1ryy	1ryy	1ryy	.	.	1r	.	4dd\	.	(8ff#\L	.	1ryy
.	.	.	.	.	.	8e/	.	8g/	.	.	.	.	.	.	.	.	.	.	.	.	.	.	.	8gg\	.	.
4AA/	.	.	4A/	.	.	8d/	.	8f#/	.	.	.	.	.	.	.	.	.	.	.	.	.	(8dd\L	.	8ff#\	.	.
.	.	.	.	.	.	8e/J)	.	8e/J)	.	.	.	.	.	.	.	.	.	.	.	.	.	8a\J)	.	8ee\J)	.	.
4DD/	.	.	4D/	.	.	4f#/	.	4d/	.	.	.	.	.	.	.	.	.	.	.	.	.	4f#/	.	4dd\|>	.	.
4r	.	.	4r	.	.	(8f#/L	.	(8a/L	.	.	.	.	.	.	.	.	.	.	.	.	.	(8ff#\L	.	(8aa\L	.	.
.	.	.	.	.	.	8e/J)	.	8g/J)	.	.	.	.	.	.	.	.	.	.	.	.	.	8ee\J)	.	8gg\J)	.	.
!	!	!	!LO:LB:g=original	!	!	!	!	!	!	!	!	!	!	!	!	!	!	!	!	!	!	!	!	!LO:LB:g=original	!	!
=96	=96	=96	=96	=96	=96	=96	=96	=96	=96	=96	=96	=96	=96	=96	=96	=96	=96	=96	=96	=96	=96	=96	=96	=96	=96	=96
4r	.	.	4r	.	1ryy	4d/	.	4f#/	.	00r	.	.	1ryy	1ryy	1ryy	1ryy	1ryy	.	.	1r	.	4dd\|>	.	4ff#\|>	.	1ryy
4D\	.	.	4d\	.	.	4d/	.	4f#/	.	.	.	.	.	.	.	.	.	.	.	.	.	4dd\|>	.	4ff#\|>	.	.
4F#\	.	.	4f#\	.	.	4d/	.	4f#/	.	.	.	.	.	.	.	.	.	.	.	.	.	4dd\|>	.	4ff#\|>	.	.
4G\	.	.	4g\	.	.	4e/	.	4g/	.	.	.	.	.	.	.	.	.	.	.	.	.	4ee\|>	.	4gg\|>	.	.
=97	=97	=97	=97	=97	=97	=97	=97	=97	=97	=97	=97	=97	=97	=97	=97	=97	=97	=97	=97	=97	=97	=97	=97	=97	=97	=97
2A\	.	.	2a\	.	1ryy	(2d/	.	(2f#/	.	.	.	.	1ryy	1ryy	1ryy	1ryy	1ryy	00r	.	1r	.	(2dd\	.	(2ff#\	.	1ryy
4AA/	.	.	4A/	.	.	4c#/)	.	4e/)	.	.	.	.	.	.	.	.	.	.	.	.	.	4cc#\)	.	4ee\)	.	.
4r	.	.	4r	.	.	4r	.	4r	.	.	.	.	.	.	.	.	.	.	.	.	.	4r	.	4r	.	.
=98	=98	=98	=98	=98	=98	=98	=98	=98	=98	=98	=98	=98	=98	=98	=98	=98	=98	=98	=98	=98	=98	=98	=98	=98	=98	=98
2AA/	.	.	2A/	.	1ryy	(2e/	.	2g/	.	.	.	.	1ryy	1ryy	1ryy	1ryy	1ryy	.	.	1r	.	(2ee\	.	(2gg\	.	1ryy
4D\	.	.	4d\	.	.	4d/)	.	4f#/|>	.	.	.	.	.	.	.	.	.	.	.	.	.	4dd\)	.	4ff#\)	.	.
4G\	3	.	4r	.	.	4g/	.	4b\|>	.	.	.	.	.	.	.	.	.	.	.	.	.	4gg\|>	.	4bb\	.	.
=99	=99	=99	=99	=99	=99	=99	=99	=99	=99	=99	=99	=99	=99	=99	=99	=99	=99	=99	=99	=99	=99	=99	=99	=99	=99	=99
4F#\	.	.	4d\	.	1ryy	4f#/	.	4a/	.	.	.	.	1ryy	1ryy	1ryy	1ryy	1ryy	.	.	1r	.	4ff#\	.	4aa\	.	1ryy
!	!	!	!	!	!	!	!	!	!	!	!	!	!	!	!	!	!	!	!	!	!	!LO:TX:t=P:problem=klamra łukowa, kropka zamiast numeru	!	!LO:TX:t=P:problem=klamra łukowa, kropka zamiast numeru	!	!
4G\	.	.	4g\	.	.	12g/L	.	12b/L	.	.	.	.	.	.	.	.	.	.	.	.	.	12gg\L	.	12bb\L	.	.
.	.	.	.	.	.	12f#/	.	12a/	.	.	.	.	.	.	.	.	.	.	.	.	.	12ff#\	.	12aa\	.	.
.	.	.	.	.	.	12e/J	.	12g/J	.	.	.	.	.	.	.	.	.	.	.	.	.	12ee\J	.	12gg\J	.	.
4A\	4	.	4a\	.	.	4d/	.	4f#/	.	.	.	.	.	.	.	.	.	.	.	.	.	4dd\	.	4ff#\	.	.
4AA/	3	.	4a\	.	.	4g/	.	4e/	.	.	.	.	.	.	.	.	.	.	.	.	.	4cc#\	.	4ee\	.	.
!LO:LB:g=original	!	!	!	!	!	!	!	!	!	!	!	!	!	!	!	!	!	!	!	!	!	!	!	!	!	!
=100	=100	=100	=100	=100	=100	=100	=100	=100	=100	=100	=100	=100	=100	=100	=100	=100	=100	=100	=100	=100	=100	=100	=100	=100	=100	=100
!LO:TX:b:t=pedal	!	!	!	!	!	!	!	!	!	!	!	!	!	!	!	!	!	!	!	!	!	!	!	!	!LO:DY:t=pp&colon;	!
2D\	.	.	(2d\	.	1ryy	(8f#/L	.	4d/	.	00r	.	.	1ryy	1ryy	1ryy	1ryy	1ryy	.	.	1r	.	8dd\L	.	4dd\	pp	1ryy
.	.	.	.	.	.	8a/	.	.	.	.	.	.	.	.	.	.	.	.	.	.	.	8a\J	.	.	.	.
.	.	.	.	.	.	8f#/	.	8r	.	.	.	.	.	.	.	.	.	.	.	.	.	2.a/	pp	8r	.	.
.	.	.	.	.	.	8a/J)	.	8ff#\|>	p	.	.	.	.	.	.	.	.	.	.	.	.	.	.	8ff#\	.	.
!	!	!	!	!	!	!	!	!LO:LB:g=original	!	!	!	!	!	!	!	!	!	!	!	!	!	!	!	!	!	!
2AA/	.	.	2c#\)	.	.	(8g/L	.	(8ee\L	.	.	.	.	.	.	.	.	.	.	.	.	.	.	.	4ee\	.	.
.	.	.	.	.	.	8a/	.	8gg\)	.	.	.	.	.	.	.	.	.	.	.	.	.	.	.	.	.	.
.	.	.	.	.	.	8g/	.	(8cc#\	.	.	.	.	.	.	.	.	.	.	.	.	.	.	.	4cc#\	.	.
.	.	.	.	.	.	8a/J)	.	8ee\J)	.	.	.	.	.	.	.	.	.	.	.	.	.	.	.	.	.	.
=101	=101	=101	=101	=101	=101	=101	=101	=101	=101	=101	=101	=101	=101	=101	=101	=101	=101	=101	=101	=101	=101	=101	=101	=101	=101	=101
2DD/	.	.	(2d\	.	1ryy	(8f#/L	.	4dd\	.	.	.	.	1ryy	1ryy	1ryy	1ryy	1ryy	0r	.	1r	.	1a/	.	4dd\	.	1ryy
.	.	.	.	.	.	8a/	.	.	.	.	.	.	.	.	.	.	.	.	.	.	.	.	.	.	.	.
.	.	.	.	.	.	8f#/	.	8r	.	.	.	.	.	.	.	.	.	.	.	.	.	.	.	8r	.	.
.	.	.	.	.	.	8a/J)	.	8ff#\|>	.	.	.	.	.	.	.	.	.	.	.	.	.	.	.	8ff#\	.	.
2AA/	.	.	2c#\)	.	.	(8g/L	.	(8ee\L	.	.	.	.	.	.	.	.	.	.	.	.	.	.	.	4ee\	.	.
.	.	.	.	.	.	8a/	.	8gg\)	.	.	.	.	.	.	.	.	.	.	.	.	.	.	.	.	.	.
.	.	.	.	.	.	8g/	.	(8cc#\	.	.	.	.	.	.	.	.	.	.	.	.	.	.	.	4cc#\	.	.
.	.	.	.	.	.	8a/J)	.	8ee\J)	.	.	.	.	.	.	.	.	.	.	.	.	.	.	.	.	.	.
!	!	!	!	!	!	!LO:LB:g=original	!	!	!	!	!	!	!	!	!	!	!	!	!	!	!	!	!	!	!	!
=102	=102	=102	=102	=102	=102	=102	=102	=102	=102	=102	=102	=102	=102	=102	=102	=102	=102	=102	=102	=102	=102	=102	=102	=102	=102	=102
2DD/	.	.	(2d\	.	1ryy	(8f#/L	.	(8dd\L	.	.	.	.	1ryy	1ryy	1ryy	1ryy	1ryy	.	.	1r	.	1a/	.	4dd\	.	1ryy
.	.	.	.	.	.	8a/	.	8ff#\	.	.	.	.	.	.	.	.	.	.	.	.	.	.	.	.	.	.
.	.	.	.	.	.	8f#/	.	8aa\)	.	.	.	.	.	.	.	.	.	.	.	.	.	.	.	8r	.	.
.	.	.	.	.	.	8a/J)	.	8ff#\J|>	.	.	.	.	.	.	.	.	.	.	.	.	.	.	.	8ff#\	.	.
2AA/	.	.	2c#\)	.	.	(8g/L	.	(8ee\L	.	.	.	.	.	.	.	.	.	.	.	.	.	.	.	4ee\	.	.
.	.	.	.	.	.	8a/	.	8gg\	.	.	.	.	.	.	.	.	.	.	.	.	.	.	.	.	.	.
.	.	.	.	.	.	8g/	.	8cc#\	.	.	.	.	.	.	.	.	.	.	.	.	.	.	.	4cc#\	.	.
.	.	.	.	.	.	8a/J)	.	8ee\J)	.	.	.	.	.	.	.	.	.	.	.	.	.	.	.	.	.	.
=103	=103	=103	=103	=103	=103	=103	=103	=103	=103	=103	=103	=103	=103	=103	=103	=103	=103	=103	=103	=103	=103	=103	=103	=103	=103	=103
4D\	.	f	4d\	.	1ryy	4f#/	.	4dd\	.	.	.	.	1ryy	1ryy	1ryy	1ryy	1ryy	1r	.	1r	.	4a\	.	4dd\	f	1ryy
!LO:TX:a:t=Organo	!	!	!	!	!	!	!	!	!	!	!	!	!	!	!	!	!	!	!	!	!	!	!	!	!	!
4DD/	.	.	4d\ 4a\	.	.	4d/ 4a/ 4ff#/	.	4dd\ 4ddd\	f	.	.	.	.	.	.	.	.	.	.	.	.	4dd\	.	4ff#\	.	.
4DD/	.	.	4d\ 4a\	.	.	4d/ 4a/ 4ff#/	.	4dd\ 4ddd\	.	.	.	.	.	.	.	.	.	.	.	.	.	4dd\	.	4ff#\	.	.
!	!	!	!	!	!	!	!	!	!	!	!	!	!	!	!	!	!	!	!	!	!	!LO:TX:b:t=V&colon; Virgo	!	!LO:TX:b:t=V&colon; Virgo.	!	!
4r	.	.	4r	.	.	4r	.	4r	.	.	.	.	.	.	.	.	.	.	.	.	.	4r	.	4r	.	.
=104	=104	=104	=104	=104	=104	=104	=104	=104	=104	=104	=104	=104	=104	=104	=104	=104	=104	=104	=104	=104	=104	=104	=104	=104	=104	=104
!LO:TX:t=P:problem=nadprogramowe pauzy w basso	!	!	!LO:TX:t=P:problem=nadprogramowe pauzy w basso	!	!	!LO:TX:t=P:problem=nadprogramowe pauzy w basso	!	!LO:TX:t=P:problem=nadprogramowe pauzy w basso	!	!LO:TX:t=P:problem=nadprogramowe 4 takty	!	!	!LO:TX:t=P:problem=nadprogramowe pauzy w basso	!LO:TX:t=P:problem=nadprogramowe pauzy w basso	!LO:TX:t=P:problem=nadprogramowe pauzy w basso	!LO:TX:t=P:problem=nadprogramowe pauzy w basso	!	!LO:TX:t=P:problem=nadprogramowe pauzy w basso	!	!LO:TX:t=P:problem=nadprogramowe pauzy w basso	!	!LO:TX:t=P:problem=nadprogramowe pauzy w basso	!	!LO:TX:t=P:problem=nadprogramowe pauzy w basso	!	!
1ryy	.	.	1ryy	.	1ryy	1ryy	.	1ryy	.	1r	.	.	1ryy	1ryy	1ryy	1ryy	1ryy	1ryy	.	1ryy	.	1ryy	.	1ryy	.	1ryy
=105	=105	=105	=105	=105	=105	=105	=105	=105	=105	=105	=105	=105	=105	=105	=105	=105	=105	=105	=105	=105	=105	=105	=105	=105	=105	=105
1ryy	.	.	1ryy	.	1ryy	1ryy	.	1ryy	.	1r	.	.	1ryy	1ryy	1ryy	1ryy	1ryy	1ryy	.	1ryy	.	1ryy	.	1ryy	.	1ryy
=106	=106	=106	=106	=106	=106	=106	=106	=106	=106	=106	=106	=106	=106	=106	=106	=106	=106	=106	=106	=106	=106	=106	=106	=106	=106	=106
1ryy	.	.	1ryy	.	1ryy	1ryy	.	1ryy	.	1r	.	.	1ryy	1ryy	1ryy	1ryy	1ryy	1ryy	.	1ryy	.	1ryy	.	1ryy	.	1ryy
=107	=107	=107	=107	=107	=107	=107	=107	=107	=107	=107	=107	=107	=107	=107	=107	=107	=107	=107	=107	=107	=107	=107	=107	=107	=107	=107
1ryy	.	.	1ryy	.	1ryy	1ryy	.	1ryy	.	1r	.	.	1ryy	1ryy	1ryy	1ryy	1ryy	1ryy	.	1ryy	.	1ryy	.	1ryy	.	1ryy
==	==	==	==	==	==	==	==	==	==	==	==	==	==	==	==	==	==	==	==	==	==	==	==	==	==	==
*-	*-	*-	*-	*-	*-	*-	*-	*-	*-	*-	*-	*-	*-	*-	*-	*-	*-	*-	*-	*-	*-	*-	*-	*-	*-	*-
!!!system-decoration: [(s1,s2,s3)][(s4,s5,s6)][s7][(s8,s9,s10,s11)][(s12,s13,s14,s15)]s16
!!!RDF**dynam: p = po
!!!RDF**dynam: mf = mfor
!!!RDF**dynam: f = for
!!!RDF**kern: > = above
!!!RDF**kern: < = below
!!!ENC: Krzysztof Stępień
!!!END: 2020-10-16
!!!ENC: Leszek Kubiak
!!!END: 2022-04-09
!!!RDF**kern: | = vertical stroke
